;This Gcode has been generated specifically for the LulzBot Mini
;Basic settings: Layer height: 0.38 Walls: 1 Fill: 0
;Filament Diameter: 2.85
;Nozzle Size: 0.5
G21                          ; metric values
G90                          ; absolute positioning
M82                          ; set extruder to absolute mode
M107                         ; start with the fan off
G92 E0                       ; set extruder position to 0
M140 S60; get bed heating up
G28                          ; home all
M109 S140                    ; set to cleaning temp and wait
G1 Z150 E-30 F75             ; suck up XXmm of filament
M109 S140                    ; heat up rest of way
G1 X45 Y174 F11520           ; move behind scraper
G1 Z0  F1200                 ; CRITICAL: set Z to height of top of scraper
G1 X45 Y174 Z-.5 F4000       ; wiping ; plunge into wipe pad
G1 X55 Y172 Z-.5 F4000       ; wiping
G1 X45 Y174 Z0 F4000         ; wiping
G1 X55 Y172 F4000            ; wiping
G1 X45 Y174 F4000            ; wiping
G1 X55 Y172 F4000            ; wiping
G1 X45 Y174 F4000            ; wiping
G1 X55 Y172 F4000            ; wiping
G1 X60 Y174 F4000            ; wiping
G1 X80 Y172 F4000            ; wiping
G1 X60 Y174 F4000            ; wiping
G1 X80 Y172 F4000            ; wiping
G1 X60 Y174 F4000            ; wiping
G1 X90 Y172 F4000            ; wiping
G1 X80 Y174 F4000            ; wiping
G1 X100 Y172 F4000           ; wiping
G1 X80 Y174 F4000            ; wiping
G1 X100 Y172 F4000           ; wiping
G1 X80 Y174 F4000            ; wiping
G1 X100 Y172 F4000           ; wiping
G1 X110 Y174 F4000           ; wiping
G1 X100 Y172 F4000           ; wiping
G1 X110 Y174 F4000           ; wiping
G1 X100 Y172 F4000           ; wiping
G1 X110 Y174 F4000           ; wiping
G1 X115 Y172 Z-0.5 F1000     ; wipe slower and bury noz in cleanish area
G1 Z10                       ; raise z
G28 X0 Y0                    ; home x and y
M109 S140                    ; set to probing temp
M204 S300                    ; Set probing acceleration
G29                          ; Probe
M204 S2000                   ; Restore standard acceleration
G1 X5 Y15 Z10 F5000          ; get out the way
G4 S1                        ; pause
M400                         ; clear buffer
M109 S205    ; set extruder temp and wait
G4 S15                       ; wait for bed to temp up
G1 Z2 E0 F75                 ; extrude filament back into nozzle
M140 S60; get bed temping up during first layer

;Layer count: 138
;LAYER:0
M107
G0 F10500 X47.436 Y11.512 Z0.425
G0 X49.854 Y12.267
;TYPE:SKIRT
G1 F900 X50.322 Y10.827 E0.06305
G1 X54.338 Y10.572 E0.23060
G1 X54.843 Y11.099 E0.26099
G1 X57.130 Y8.814 E0.39560
G1 X60.714 Y17.115 E0.77208
G1 X61.302 Y17.915 E0.81342
G1 X61.357 Y19.322 E0.87205
G1 X64.054 Y18.315 E0.99192
G1 X65.390 Y18.838 E1.05166
G1 X66.694 Y19.324 E1.10960
G1 X66.750 Y17.906 E1.16869
G1 X67.342 Y17.107 E1.21010
G1 X70.920 Y8.813 E1.58621
G1 X73.208 Y11.099 E1.72088
G1 X73.725 Y10.559 E1.75200
G1 X77.737 Y10.848 E1.91949
G1 X78.197 Y12.266 E1.98156
G1 X79.870 Y11.743 E2.05454
G1 X80.041 Y9.209 E2.16029
G1 X82.461 Y9.964 E2.26585
G1 X82.929 Y8.523 E2.32893
G1 X86.945 Y8.268 E2.49649
G1 X87.450 Y8.795 E2.52688
G1 X89.738 Y6.509 E2.66155
G1 X93.320 Y14.811 E3.03803
G1 X93.907 Y15.611 E3.07935
G1 X93.963 Y17.018 E3.13798
G1 X96.660 Y16.011 E3.25785
G1 X97.996 Y16.534 E3.31759
G1 X99.301 Y17.020 E3.37557
G1 X99.356 Y15.602 E3.43466
G1 X99.948 Y14.803 E3.47606
G1 X103.528 Y6.509 E3.85221
G1 X105.815 Y8.794 E3.98682
G1 X106.332 Y8.255 E4.01791
G1 X110.344 Y8.544 E4.18540
G1 X110.804 Y9.962 E4.24747
G1 X113.053 Y9.259 E4.34558
G1 X113.527 Y13.545 E4.52513
G1 X113.954 Y19.992 E4.79416
G1 X113.325 Y21.688 E4.86948
G1 X107.892 Y28.993 E5.24854
G1 X105.890 Y28.919 E5.33196
G1 X102.736 Y28.768 E5.46344
G1 X102.606 Y29.228 E5.48334
G1 X102.607 Y29.239 E5.48380
G1 X102.576 Y29.671 E5.50183
G1 X102.021 Y36.468 E5.78579
G1 X101.494 Y44.283 E6.11193
G1 X100.016 Y47.185 E6.24753
G1 X96.832 Y46.856 E6.38081
G1 X96.680 Y46.886 E6.38726
G1 X96.478 Y46.852 E6.39579
G1 X93.245 Y47.181 E6.53110
G1 X91.768 Y44.281 E6.66661
G1 X91.227 Y36.163 E7.00538
G1 X90.657 Y29.256 E7.29395
G1 X90.658 Y29.229 E7.29507
G1 X90.528 Y28.769 E7.31498
G1 X85.384 Y29.011 E7.52940
G1 X81.029 Y23.153 E7.83334
G1 X80.718 Y23.992 E7.87059
G1 X75.287 Y31.297 E8.24961
G1 X73.284 Y31.223 E8.33307
G1 X70.129 Y31.072 E8.46459
G1 X69.999 Y31.532 E8.48449
G1 X70.000 Y31.543 E8.48495
G1 X69.969 Y31.975 E8.50298
G1 X69.414 Y38.771 E8.78690
G1 X68.888 Y46.587 E9.11307
G1 X67.410 Y49.489 E9.24868
G1 X64.226 Y49.160 E9.38196
G1 X64.074 Y49.190 E9.38841
G1 X63.872 Y49.156 E9.39694
G1 X60.639 Y49.485 E9.53225
G1 X59.163 Y46.585 E9.66774
G1 X58.620 Y38.468 E10.00647
G1 X58.050 Y31.560 E10.29508
G1 X58.051 Y31.533 E10.29621
G1 X57.921 Y31.073 E10.31611
G1 X52.777 Y31.315 E10.53053
G1 X47.329 Y23.987 E10.91074
G1 X46.705 Y22.287 E10.98614
G1 X47.436 Y11.512 E11.43582
G1 X49.854 Y12.267 E11.54130
G0 F10500 X45.782 Y11.630
G1 F900 X46.256 Y15.916 E11.72085
G1 X46.683 Y22.363 E11.98987
G1 X46.054 Y24.059 E12.06519
G1 X40.623 Y31.364 E12.44421
G1 X38.620 Y31.290 E12.52767
G1 X35.465 Y31.139 E12.65919
G1 X35.335 Y31.599 E12.67909
G1 X35.336 Y31.610 E12.67955
G1 X35.305 Y32.042 E12.69758
G1 X34.750 Y38.839 E12.98154
G1 X34.223 Y46.654 E13.30768
G1 X32.745 Y49.556 E13.44328
G1 X29.561 Y49.227 E13.57656
G1 X29.409 Y49.257 E13.58301
G1 X29.207 Y49.223 E13.59154
G1 X25.974 Y49.552 E13.72685
G1 X24.497 Y46.652 E13.86236
G1 X23.956 Y38.534 E14.20113
G1 X23.386 Y31.627 E14.48970
G1 X23.387 Y31.600 E14.49082
G1 X23.257 Y31.140 E14.51073
G1 X18.113 Y31.382 E14.72515
G1 X12.665 Y24.054 E15.10536
G1 X12.041 Y22.354 E15.18076
G1 X12.772 Y11.579 E15.63044
G1 X15.190 Y12.334 E15.73591
G1 X15.658 Y10.894 E15.79896
G1 X19.674 Y10.639 E15.96651
G1 X20.179 Y11.166 E15.99691
G1 X22.467 Y8.880 E16.13158
G1 X26.049 Y17.182 E16.50806
G1 X26.636 Y17.982 E16.54937
G1 X26.692 Y19.389 E16.60800
G1 X29.389 Y18.382 E16.72787
G1 X30.725 Y18.905 E16.78761
G1 X32.030 Y19.391 E16.84560
G1 X32.085 Y17.973 E16.90468
G1 X32.677 Y17.174 E16.94609
G1 X36.257 Y8.880 E17.32223
G1 X38.544 Y11.165 E17.45684
G1 X39.061 Y10.626 E17.48794
G1 X43.073 Y10.915 E17.65542
G1 X43.533 Y12.333 E17.71750
G1 X45.782 Y11.630 E17.81561
G1 F600 E16.31561
G1 Z0.525
G0 F10500 X22.339 Y19.308
;TYPE:WALL-INNER
G1 Z0.425
G1 F600 E17.81561
G1 F900 X22.442 Y19.449 E17.82288
G1 X22.737 Y26.911 E18.13382
G1 X20.173 Y27.032 E18.24070
G1 X16.443 Y22.013 E18.50108
G1 X16.342 Y21.738 E18.51327
G1 X16.647 Y17.240 E18.70099
G1 X17.934 Y17.643 E18.75715
G1 X18.584 Y15.641 E18.84479
G1 X20.115 Y17.237 E18.93687
G1 X21.045 Y16.308 E18.99161
G1 X22.339 Y19.308 E19.12765
G0 F10500 X22.885 Y18.995
;TYPE:WALL-OUTER
G1 F900 X23.059 Y19.232 E19.13989
G1 X23.386 Y27.506 E19.48467
G1 X19.870 Y27.671 E19.63123
G1 X15.887 Y22.314 E19.90918
G1 X15.709 Y21.827 E19.93077
G1 X16.076 Y16.408 E20.15693
G1 X17.530 Y16.862 E20.22035
G1 X18.312 Y14.454 E20.32577
G1 X20.124 Y16.344 E20.43479
G1 X21.254 Y15.216 E20.50127
G1 X22.885 Y18.995 E20.67265
G0 F10500 X21.870 Y18.777
;TYPE:SKIN
G1 F900 X20.377 Y17.284 E20.76056
G0 F10500 X20.819 Y16.842
G1 F900 X21.201 Y17.225 E20.78309
G0 F10500 X18.577 Y16.368
G1 F900 X22.245 Y20.036 E20.99908
G0 F10500 X22.282 Y20.957
G1 F900 X18.360 Y17.035 E21.23002
G0 F10500 X18.143 Y17.702
G1 F900 X22.319 Y21.877 E21.47590
G0 F10500 X22.355 Y22.797
G1 F900 X17.198 Y17.641 E21.77954
G0 F10500 X16.805 Y18.131
G1 F900 X22.391 Y23.718 E22.10850
G0 F10500 X22.428 Y24.639
G1 F900 X16.749 Y18.959 E22.44294
G0 F10500 X16.693 Y19.787
G1 F900 X22.464 Y25.559 E22.78279
G0 F10500 X22.501 Y26.479
G1 F900 X16.637 Y20.615 E23.12809
G0 F10500 X16.580 Y21.443
G1 F900 X21.869 Y26.731 E23.43951
G0 F10500 X21.024 Y26.770
G1 F900 X18.015 Y23.761 E23.61669
G1 F600 E22.11669
G1 Z0.525
G0 F10500 X25.729 Y24.284
;TYPE:WALL-INNER
G1 Z0.425
G1 F600 E23.61669
G1 F900 X29.358 Y22.930 E23.77797
G1 X32.994 Y24.284 E23.93952
G1 X31.083 Y31.023 E24.23118
G1 X31.071 Y31.426 E24.24797
G1 X31.079 Y31.571 E24.25402
G1 X30.511 Y38.546 E24.54540
G1 X30.075 Y45.008 E24.81508
G1 X29.356 Y44.934 E24.84518
G1 X28.646 Y45.009 E24.87490
G1 X28.195 Y38.244 E25.15721
G1 X27.644 Y31.568 E25.43613
G1 X27.652 Y31.424 E25.44213
G1 X27.639 Y31.020 E25.45897
G1 X25.729 Y24.284 E25.75050
G0 F10500 X24.970 Y23.899
;TYPE:WALL-OUTER
G1 F900 X29.358 Y22.262 E25.94550
G1 X33.753 Y23.900 E26.14080
G1 X31.705 Y31.118 E26.45320
G1 X31.697 Y31.418 E26.46570
G1 X31.705 Y31.580 E26.47245
G1 X31.134 Y38.593 E26.76543
G1 X30.657 Y45.669 E27.06073
G1 X30.644 Y45.696 E27.06197
G1 X29.386 Y45.566 E27.11463
G1 X29.358 Y45.572 E27.11583
G1 X29.331 Y45.567 E27.11697
G1 X28.077 Y45.695 E27.16945
G1 X28.064 Y45.668 E27.17070
G1 X27.572 Y38.291 E27.47855
G1 X27.018 Y31.578 E27.75901
G1 X27.026 Y31.417 E27.76573
G1 X27.017 Y31.117 E27.77822
G1 X24.970 Y23.899 E28.09062
G0 F10500 X26.092 Y24.767
;TYPE:SKIN
G1 F900 X31.184 Y29.859 E28.39046
G0 F10500 X30.988 Y30.547
G1 F900 X26.442 Y26.001 E28.65815
G0 F10500 X26.792 Y27.234
G1 F900 X30.856 Y31.299 E28.89749
G0 F10500 X30.812 Y32.139
G1 F900 X27.143 Y28.469 E29.11357
G0 F10500 X27.493 Y29.703
G1 F900 X30.746 Y32.956 E29.30512
G0 F10500 X30.679 Y33.774
G1 F900 X27.843 Y30.937 E29.47215
G0 F10500 X27.888 Y31.867
G1 F900 X30.613 Y34.591 E29.63258
G0 F10500 X30.547 Y35.409
G1 F900 X27.968 Y32.830 E29.78444
G0 F10500 X28.047 Y33.793
G1 F900 X30.480 Y36.226 E29.92771
G0 F10500 X30.414 Y37.043
G1 F900 X28.126 Y34.756 E30.06241
G0 F10500 X28.205 Y35.719
G1 F900 X30.347 Y37.861 E30.18854
G0 F10500 X30.282 Y38.680
G1 F900 X28.285 Y36.683 E30.30613
G0 F10500 X28.364 Y37.646
G1 F900 X30.226 Y39.508 E30.41578
G0 F10500 X30.170 Y40.336
G1 F900 X28.437 Y38.603 E30.51783
G0 F10500 X28.500 Y39.549
G1 F900 X30.114 Y41.164 E30.61290
G0 F10500 X30.059 Y41.992
G1 F900 X28.564 Y40.497 E30.70093
G0 F10500 X28.627 Y41.444
G1 F900 X30.003 Y42.820 E30.78195
G0 F10500 X29.947 Y43.648
G1 F900 X28.690 Y42.391 E30.85597
G0 F10500 X28.753 Y43.338
G1 F900 X29.891 Y44.476 E30.92298
G0 F10500 X29.254 Y44.723
G1 F900 X28.816 Y44.285 E30.94878
G0 F10500 X31.379 Y29.170
G1 F900 X26.454 Y24.245 E31.23878
G0 F10500 X27.099 Y24.006
G1 F900 X31.575 Y28.482 E31.50235
G0 F10500 X31.771 Y27.794
G1 F900 X27.742 Y23.765 E31.73960
G0 F10500 X28.386 Y23.526
G1 F900 X31.966 Y27.105 E31.95038
G0 F10500 X32.161 Y26.416
G1 F900 X29.030 Y23.286 E32.13472
G0 F10500 X30.050 Y23.422
G1 F900 X32.357 Y25.728 E32.27054
G0 F10500 X32.552 Y25.040
G1 F900 X31.458 Y23.946 E32.33496
G1 F600 E30.83496
G1 Z0.525
G0 F10500 X35.986 Y26.910
;TYPE:WALL-INNER
G1 Z0.425
G1 F600 E32.33496
G1 F900 X36.279 Y19.450 E32.64582
G1 X36.383 Y19.309 E32.65311
G1 X37.678 Y16.308 E32.78920
G1 X38.608 Y17.237 E32.84394
G1 X40.139 Y15.640 E32.93605
G1 X40.789 Y17.643 E33.02374
G1 X42.085 Y17.238 E33.08027
G1 X42.383 Y21.736 E33.26797
G1 X42.280 Y22.013 E33.28028
G1 X38.548 Y27.033 E33.54073
G1 X35.986 Y26.910 E33.64753
G0 F10500 X35.337 Y27.505
;TYPE:WALL-OUTER
G1 F900 X35.662 Y19.233 E33.99223
G1 X35.838 Y18.995 E34.00455
G1 X37.469 Y15.216 E34.17593
G1 X38.599 Y16.344 E34.24241
G1 X40.411 Y14.454 E34.35143
G1 X41.192 Y16.862 E34.45684
G1 X42.657 Y16.404 E34.52075
G1 X43.015 Y21.828 E34.74708
G1 X42.835 Y22.315 E34.76870
G1 X38.852 Y27.672 E35.04666
G1 X35.337 Y27.505 E35.19318
G0 F10500 X35.761 Y27.202
G0 X36.236 Y26.072
;TYPE:SKIN
G1 F900 X36.897 Y26.733 E35.23210
G0 F10500 X37.825 Y26.778
G1 F900 X36.269 Y25.221 E35.32376
G0 F10500 X36.302 Y24.371
G1 F900 X38.569 Y26.638 E35.45725
G0 F10500 X38.946 Y26.130
G1 F900 X36.336 Y23.521 E35.61091
G0 F10500 X36.370 Y22.670
G1 F900 X39.322 Y25.623 E35.78477
G0 F10500 X39.699 Y25.116
G1 F900 X36.403 Y21.820 E35.97885
G0 F10500 X36.437 Y20.969
G1 F900 X40.076 Y24.609 E36.19316
G0 F10500 X40.453 Y24.102
G1 F900 X36.470 Y20.119 E36.42770
G0 F10500 X36.597 Y19.362
G1 F900 X40.830 Y23.595 E36.67696
G0 F10500 X41.207 Y23.088
G1 F900 X36.863 Y18.744 E36.93276
G0 F10500 X37.130 Y18.127
G1 F900 X41.584 Y22.581 E37.19503
G0 F10500 X41.961 Y22.074
G1 F900 X37.396 Y17.509 E37.46384
G0 F10500 X37.662 Y16.892
G1 F900 X42.139 Y21.368 E37.72744
G0 F10500 X42.076 Y20.421
G1 F900 X38.900 Y17.246 E37.91443
G0 F10500 X39.333 Y16.795
G1 F900 X42.013 Y19.475 E38.07224
G0 F10500 X41.950 Y18.528
G1 F900 X40.743 Y17.321 E38.11784
G1 X39.765 Y16.343 E38.17543
G1 F600 E36.67543
G1 Z0.525
G0 F10500 X51.311 Y17.173
;TYPE:WALL-INNER
G1 Z0.425
G1 F600 E38.17543
G1 F900 X52.598 Y17.576 E38.23158
G1 X53.248 Y15.574 E38.31923
G1 X54.779 Y17.170 E38.41131
G1 X55.709 Y16.241 E38.46605
G1 X57.004 Y19.241 E38.60210
G1 X57.107 Y19.382 E38.60937
G1 X57.401 Y26.844 E38.92032
G1 X54.837 Y26.965 E39.02719
G1 X51.107 Y21.946 E39.28757
G1 X51.006 Y21.671 E39.29977
G1 X51.311 Y17.173 E39.48748
G0 F10500 X52.194 Y16.795
;TYPE:WALL-OUTER
G1 F900 X52.976 Y14.387 E39.59290
G1 X54.788 Y16.277 E39.70192
G1 X55.918 Y15.149 E39.76840
G1 X57.550 Y18.928 E39.93980
G1 X57.724 Y19.165 E39.95204
G1 X58.050 Y27.439 E40.29682
G1 X54.534 Y27.604 E40.44338
G1 X50.551 Y22.247 E40.72133
G1 X50.373 Y21.760 E40.74292
G1 X50.740 Y16.341 E40.96908
G1 X52.194 Y16.795 E41.03250
G0 F10500 X52.960 Y17.163
;TYPE:SKIN
G1 F900 X56.957 Y21.160 E41.26786
G0 F10500 X56.921 Y20.240
G1 F900 X53.177 Y16.496 E41.48833
G0 F10500 X52.743 Y17.831
G1 F900 X56.994 Y22.081 E41.73862
G0 F10500 X57.030 Y23.001
G1 F900 X51.507 Y17.478 E42.06384
G0 F10500 X51.451 Y18.306
G1 F900 X57.066 Y23.921 E42.39448
G0 F10500 X57.102 Y24.841
G1 F900 X51.396 Y19.135 E42.73048
G0 F10500 X51.340 Y19.963
G1 F900 X57.139 Y25.762 E43.07195
G0 F10500 X57.130 Y26.637
G1 F900 X51.283 Y20.790 E43.41625
G0 F10500 X51.227 Y21.618
G1 F900 X56.286 Y26.677 E43.71415
G0 F10500 X55.442 Y26.716
G1 F900 X53.424 Y24.699 E43.83295
G0 F10500 X56.732 Y19.168
G1 F900 X54.911 Y17.346 E43.94021
G0 F10500 X55.353 Y16.904
G1 F900 X56.062 Y17.614 E43.98199
G1 F600 E42.48199
G1 Z0.525
G0 F10500 X60.393 Y24.217
;TYPE:WALL-INNER
G1 Z0.425
G1 F600 E43.98199
G1 F900 X64.022 Y22.863 E44.14327
G1 X67.658 Y24.217 E44.30482
G1 X65.747 Y30.956 E44.59648
G1 X65.735 Y31.359 E44.61327
G1 X65.743 Y31.504 E44.61932
G1 X65.175 Y38.479 E44.91070
G1 X64.740 Y44.941 E45.18038
G1 X64.021 Y44.867 E45.21047
G1 X63.311 Y44.942 E45.24020
G1 X62.859 Y38.177 E45.52251
G1 X62.308 Y31.501 E45.80143
G1 X62.316 Y31.357 E45.80743
G1 X62.303 Y30.953 E45.82426
G1 X60.393 Y24.217 E46.11579
G0 F10500 X59.634 Y23.832
;TYPE:WALL-OUTER
G1 F900 X64.023 Y22.195 E46.31084
G1 X68.417 Y23.833 E46.50610
G1 X66.369 Y31.051 E46.81850
G1 X66.361 Y31.351 E46.83100
G1 X66.369 Y31.513 E46.83775
G1 X65.798 Y38.526 E47.13073
G1 X65.322 Y45.602 E47.42602
G1 X65.309 Y45.629 E47.42727
G1 X64.051 Y45.499 E47.47993
G1 X64.023 Y45.505 E47.48112
G1 X63.996 Y45.500 E47.48227
G1 X62.742 Y45.628 E47.53475
G1 X62.729 Y45.601 E47.53600
G1 X62.236 Y38.224 E47.84385
G1 X61.682 Y31.511 E48.12431
G1 X61.690 Y31.350 E48.13102
G1 X61.681 Y31.050 E48.14352
G1 X59.634 Y23.832 E48.45592
G0 F10500 X60.930 Y24.250
;TYPE:SKIN
G1 F900 X65.986 Y29.306 E48.75364
G0 F10500 X65.791 Y29.994
G1 F900 X60.858 Y25.061 E49.04412
G0 F10500 X61.574 Y24.009
G1 F900 X66.182 Y28.618 E49.31549
G0 F10500 X66.377 Y27.929
G1 F900 X62.218 Y23.770 E49.56039
G0 F10500 X62.861 Y23.529
G1 F900 X66.572 Y27.240 E49.77891
G0 F10500 X66.768 Y26.552
G1 F900 X63.505 Y23.289 E49.97106
G0 F10500 X64.301 Y23.201
G1 F900 X66.963 Y25.863 E50.12781
G0 F10500 X67.158 Y25.175
G1 F900 X65.709 Y23.725 E50.21316
G0 F10500 X67.117 Y24.250
G1 F900 X67.354 Y24.487 E50.22712
G0 F10500 X61.208 Y26.295
G1 F900 X65.596 Y30.683 E50.48550
G0 F10500 X65.522 Y31.493
G1 F900 X61.558 Y27.529 E50.71892
G0 F10500 X61.909 Y28.764
G1 F900 X65.456 Y32.311 E50.92779
G0 F10500 X65.390 Y33.129
G1 F900 X62.259 Y29.998 E51.11216
G0 F10500 X62.527 Y31.150
G1 F900 X65.323 Y33.946 E51.27680
G0 F10500 X65.257 Y34.764
G1 F900 X62.574 Y32.081 E51.43479
G0 F10500 X62.654 Y33.045
G1 F900 X65.191 Y35.581 E51.58415
G0 F10500 X65.124 Y36.399
G1 F900 X62.733 Y34.008 E51.72494
G0 F10500 X62.813 Y34.971
G1 F900 X65.058 Y37.216 E51.85714
G0 F10500 X64.991 Y38.033
G1 F900 X62.892 Y35.934 E51.98074
G0 F10500 X62.971 Y36.897
G1 F900 X64.930 Y38.856 E52.09610
G0 F10500 X64.874 Y39.684
G1 F900 X63.051 Y37.861 E52.20344
G0 F10500 X63.119 Y38.813
G1 F900 X64.818 Y40.512 E52.30349
G0 F10500 X64.763 Y41.340
G1 F900 X63.182 Y39.760 E52.39656
G0 F10500 X63.245 Y40.707
G1 F900 X64.707 Y42.169 E52.48265
G0 F10500 X64.651 Y42.997
G1 F900 X63.309 Y41.654 E52.56170
G0 F10500 X63.372 Y42.601
G1 F900 X64.595 Y43.825 E52.63374
G0 F10500 X64.539 Y44.653
G1 F900 X63.435 Y43.549 E52.69875
G0 F10500 X63.498 Y44.496
G1 F900 X63.684 Y44.682 E52.70971
G1 F600 E51.20971
G1 Z0.525
G0 F10500 X70.650 Y26.843
;TYPE:WALL-INNER
G1 Z0.425
G1 F600 E52.70971
G1 F900 X70.944 Y19.383 E53.02057
G1 X71.048 Y19.242 E53.02786
G1 X72.342 Y16.241 E53.16394
G1 X73.272 Y17.170 E53.21867
G1 X74.803 Y15.573 E53.31079
G1 X75.453 Y17.576 E53.39847
G1 X76.750 Y17.170 E53.45506
G1 X77.047 Y21.669 E53.64280
G1 X76.944 Y21.946 E53.65510
G1 X73.212 Y26.966 E53.91556
G1 X70.650 Y26.843 E54.02236
G0 F10500 X70.001 Y27.438
;TYPE:WALL-OUTER
G1 F900 X70.327 Y19.166 E54.36705
G1 X70.503 Y18.928 E54.37938
G1 X72.133 Y15.149 E54.55074
G1 X73.263 Y16.277 E54.61722
G1 X75.075 Y14.387 E54.72624
G1 X75.856 Y16.795 E54.83165
G1 X77.322 Y16.337 E54.89560
G1 X77.679 Y21.761 E55.12193
G1 X77.499 Y22.248 E55.14355
G1 X73.516 Y27.605 E55.42150
G1 X70.001 Y27.438 E55.56803
G0 F10500 X70.890 Y26.255
;TYPE:SKIN
G1 F900 X71.289 Y26.653 E55.59149
G0 F10500 X72.217 Y26.698
G1 F900 X70.924 Y25.404 E55.66766
G0 F10500 X70.957 Y24.554
G1 F900 X73.123 Y26.720 E55.79520
G0 F10500 X73.499 Y26.212
G1 F900 X70.991 Y23.704 E55.94289
G0 F10500 X71.024 Y22.853
G1 F900 X73.876 Y25.705 E56.11083
G0 F10500 X74.253 Y25.198
G1 F900 X71.058 Y22.003 E56.29896
G0 F10500 X71.091 Y21.153
G1 F900 X74.630 Y24.691 E56.50733
G0 F10500 X75.007 Y24.184
G1 F900 X71.125 Y20.302 E56.73592
G0 F10500 X71.161 Y19.454
G1 F900 X75.383 Y23.677 E56.98456
G0 F10500 X75.760 Y23.170
G1 F900 X71.449 Y18.859 E57.23842
G0 F10500 X71.716 Y18.241
G1 F900 X76.137 Y22.663 E57.49878
G0 F10500 X76.514 Y22.156
G1 F900 X71.982 Y17.624 E57.76564
G0 F10500 X72.249 Y17.007
G1 F900 X76.821 Y21.579 E58.03486
G0 F10500 X76.759 Y20.633
G1 F900 X73.437 Y17.312 E58.23045
G0 F10500 X73.870 Y16.860
G1 F900 X76.696 Y19.686 E58.39686
G0 F10500 X76.634 Y18.740
G1 F900 X75.640 Y17.746 E58.45539
G0 F10500 X76.313 Y17.536
G1 F900 X76.571 Y17.793 E58.47055
G0 F10500 X75.103 Y17.209
G1 F900 X74.302 Y16.409 E58.51769
G1 F600 E57.01769
G1 Z0.525
G0 F10500 X83.613 Y19.366
;TYPE:WALL-INNER
G1 Z0.425
G1 F600 E58.51769
G1 F900 X83.917 Y14.869 E58.70536
G1 X85.205 Y15.271 E58.76155
G1 X85.855 Y13.270 E58.84915
G1 X87.386 Y14.866 E58.94124
G1 X88.316 Y13.937 E58.99597
G1 X89.610 Y16.937 E59.13201
G1 X89.713 Y17.078 E59.13928
G1 X90.008 Y24.540 E59.45022
G1 X87.444 Y24.661 E59.55710
G1 X83.714 Y19.642 E59.81747
G1 X83.613 Y19.366 E59.82971
G0 F10500 X83.158 Y19.943
;TYPE:WALL-OUTER
G1 F900 X82.980 Y19.456 E59.85130
G1 X83.346 Y14.037 E60.07745
G1 X84.802 Y14.491 E60.14096
G1 X85.583 Y12.083 E60.24636
G1 X87.395 Y13.973 E60.35538
G1 X88.525 Y12.845 E60.42186
G1 X90.156 Y16.624 E60.59324
G1 X90.330 Y16.861 E60.60548
G1 X90.657 Y25.135 E60.95027
G1 X87.141 Y25.300 E61.09683
G1 X83.158 Y19.943 E61.37478
G0 F10500 X83.862 Y18.897
;TYPE:SKIN
G1 F900 X89.318 Y24.353 E61.69605
G0 F10500 X89.764 Y23.915
G1 F900 X83.918 Y18.069 E62.04030
G0 F10500 X83.974 Y17.242
G1 F900 X89.727 Y22.995 E62.37906
G0 F10500 X89.691 Y22.075
G1 F900 X84.030 Y16.414 E62.71241
G0 F10500 X84.086 Y15.586
G1 F900 X89.654 Y21.154 E63.04028
G0 F10500 X89.618 Y20.233
G1 F900 X84.741 Y15.356 E63.32746
G0 F10500 X85.459 Y15.191
G1 F900 X89.581 Y19.313 E63.57019
G0 F10500 X89.545 Y18.393
G1 F900 X85.676 Y14.524 E63.79801
G0 F10500 X85.893 Y13.857
G1 F900 X89.508 Y17.472 E64.01088
G0 F10500 X89.002 Y16.082
G1 F900 X87.740 Y14.820 E64.08519
G0 F10500 X88.182 Y14.379
G1 F900 X88.333 Y14.530 E64.09409
G0 F10500 X84.748 Y20.667
G1 F900 X88.473 Y24.393 E64.31346
G0 F10500 X87.628 Y24.431
G1 F900 X87.307 Y24.110 E64.33236
G1 F600 E62.83236
G1 Z0.525
G0 F10500 X93.000 Y21.913
;TYPE:WALL-INNER
G1 Z0.425
G1 F600 E64.33236
G1 F900 X96.629 Y20.559 E64.49364
G1 X100.265 Y21.913 E64.65519
G1 X98.354 Y28.652 E64.94686
G1 X98.342 Y29.055 E64.96364
G1 X98.350 Y29.200 E64.96969
G1 X97.782 Y36.175 E65.26108
G1 X97.346 Y42.637 E65.53075
G1 X96.627 Y42.563 E65.56085
G1 X95.917 Y42.638 E65.59058
G1 X95.466 Y35.873 E65.87288
G1 X94.915 Y29.197 E66.15180
G1 X94.923 Y29.053 E66.15781
G1 X94.910 Y28.649 E66.17464
G1 X93.000 Y21.913 E66.46617
G0 F10500 X92.241 Y21.528
;TYPE:WALL-OUTER
G1 F900 X96.629 Y19.891 E66.66118
G1 X101.024 Y21.529 E66.85647
G1 X98.976 Y28.747 E67.16888
G1 X98.968 Y29.047 E67.18137
G1 X98.976 Y29.209 E67.18813
G1 X98.405 Y36.222 E67.48110
G1 X97.928 Y43.298 E67.77640
G1 X97.915 Y43.325 E67.77765
G1 X96.657 Y43.195 E67.83031
G1 X96.629 Y43.201 E67.83150
G1 X96.602 Y43.196 E67.83264
G1 X95.348 Y43.324 E67.88513
G1 X95.335 Y43.297 E67.88637
G1 X94.843 Y35.920 E68.19422
G1 X94.289 Y29.207 E68.47469
G1 X94.297 Y29.046 E68.48140
G1 X94.288 Y28.746 E68.49389
G1 X92.241 Y21.528 E68.80629
G0 F10500 X93.289 Y22.137
;TYPE:SKIN
G1 F900 X98.497 Y27.345 E69.11296
G0 F10500 X98.301 Y28.033
G1 F900 X93.639 Y23.371 E69.38748
G0 F10500 X93.990 Y24.605
G1 F900 X98.132 Y28.748 E69.63142
G0 F10500 X98.097 Y29.597
G1 F900 X94.340 Y25.839 E69.85268
G0 F10500 X94.690 Y27.074
G1 F900 X98.031 Y30.414 E70.04938
G0 F10500 X97.964 Y31.232
G1 F900 X95.040 Y28.308 E70.22156
G0 F10500 X95.141 Y29.293
G1 F900 X97.898 Y32.049 E70.38388
G0 F10500 X97.831 Y32.867
G1 F900 X95.221 Y30.256 E70.53760
G0 F10500 X95.300 Y31.219
G1 F900 X97.765 Y33.684 E70.68275
G0 F10500 X97.698 Y34.501
G1 F900 X95.380 Y32.183 E70.81924
G0 F10500 X95.459 Y33.146
G1 F900 X97.632 Y35.319 E70.94720
G0 F10500 X97.565 Y36.136
G1 F900 X95.538 Y34.109 E71.06656
G0 F10500 X95.617 Y35.072
G1 F900 X97.510 Y36.964 E71.17800
G0 F10500 X97.454 Y37.792
G1 F900 X95.694 Y36.032 E71.28164
G0 F10500 X95.757 Y36.980
G1 F900 X97.397 Y38.620 E71.37821
G0 F10500 X97.341 Y39.448
G1 F900 X95.820 Y37.927 E71.46777
G0 F10500 X95.883 Y38.873
G1 F900 X97.285 Y40.276 E71.55036
G0 F10500 X97.230 Y41.104
G1 F900 X95.947 Y39.821 E71.62591
G0 F10500 X98.692 Y26.656
G1 F900 X93.860 Y21.824 E71.91044
G0 F10500 X94.504 Y21.585
G1 F900 X98.887 Y25.967 E72.16850
G0 F10500 X99.082 Y25.279
G1 F900 X95.148 Y21.344 E72.40019
G0 F10500 X95.792 Y21.105
G1 F900 X99.277 Y24.590 E72.60540
G0 F10500 X99.473 Y23.902
G1 F900 X96.435 Y20.864 E72.78429
G0 F10500 X97.615 Y21.160
G1 F900 X99.668 Y23.213 E72.90518
G0 F10500 X99.863 Y22.524
G1 F900 X99.023 Y21.684 E72.95465
G0 F10500 X96.010 Y40.768
G1 F900 X97.174 Y41.932 E73.02319
G0 F10500 X96.708 Y42.350
G1 F900 X96.073 Y41.715 E73.06058
G1 F600 E71.56058
G1 Z0.525
G0 F10500 X103.257 Y24.539
;TYPE:WALL-INNER
G1 Z0.425
G1 F600 E73.06058
G1 F900 X103.550 Y17.079 E73.37144
G1 X103.654 Y16.938 E73.37873
G1 X104.949 Y13.937 E73.51483
G1 X105.879 Y14.866 E73.56956
G1 X107.410 Y13.269 E73.66168
G1 X108.060 Y15.272 E73.74936
G1 X109.356 Y14.867 E73.80590
G1 X109.654 Y19.365 E73.99359
G1 X109.551 Y19.642 E74.00590
G1 X105.818 Y24.662 E74.26638
G1 X103.257 Y24.539 E74.37314
G0 F10500 X102.608 Y25.134
;TYPE:WALL-OUTER
G1 F900 X102.933 Y16.862 E74.71783
G1 X103.109 Y16.624 E74.73016
G1 X104.740 Y12.845 E74.90154
G1 X105.870 Y13.973 E74.96802
G1 X107.682 Y12.083 E75.07704
G1 X108.463 Y14.491 E75.18245
G1 X109.928 Y14.033 E75.24636
G1 X110.286 Y19.457 E75.47269
G1 X110.106 Y19.944 E75.49431
G1 X106.122 Y25.301 E75.77229
G1 X102.608 Y25.134 E75.91877
G0 F10500 X103.032 Y24.831
G0 X103.514 Y23.524
;TYPE:SKIN
G1 F900 X104.362 Y24.371 E75.96867
G0 F10500 X105.291 Y24.416
G1 F900 X103.548 Y22.673 E76.07131
G0 F10500 X103.581 Y21.823
G1 F900 X105.918 Y24.159 E76.20889
G0 F10500 X106.295 Y23.652
G1 F900 X103.615 Y20.972 E76.36671
G0 F10500 X103.648 Y20.122
G1 F900 X106.672 Y23.145 E76.54474
G0 F10500 X107.049 Y22.639
G1 F900 X103.681 Y19.271 E76.74307
G0 F10500 X103.714 Y18.420
G1 F900 X107.426 Y22.132 E76.96165
G0 F10500 X107.803 Y21.625
G1 F900 X103.748 Y17.570 E77.20043
G0 F10500 X103.924 Y16.862
G1 F900 X108.180 Y21.118 E77.45104
G0 F10500 X108.557 Y20.611
G1 F900 X104.190 Y16.244 E77.70819
G0 F10500 X104.456 Y15.627
G1 F900 X108.934 Y20.104 E77.97185
G0 F10500 X109.310 Y19.597
G1 F900 X104.722 Y15.009 E78.24202
G0 F10500 X104.989 Y14.391
G1 F900 X109.397 Y18.799 E78.50158
G0 F10500 X109.334 Y17.853
G1 F900 X106.262 Y14.781 E78.68247
G0 F10500 X106.695 Y14.330
G1 F900 X109.271 Y16.906 E78.83416
G0 F10500 X109.208 Y15.959
G1 F900 X108.586 Y15.337 E78.87079
G0 F10500 X107.495 Y14.246
G1 F900 X107.127 Y13.878 E78.89246
;LAYER:1
M106 S191
G1 F600 E77.39246
G1 Z0.525
G0 F10500 X22.540 Y19.437 Z0.805
;TYPE:WALL-INNER
G1 Z0.805
G1 F600 E78.89246
G1 F1140 X22.828 Y26.738 E79.11008
G1 X22.847 Y27.197 E79.12376
G1 X20.320 Y27.317 E79.19911
G1 X20.086 Y27.326 E79.20608
G1 X16.825 Y22.941 E79.36884
G1 X16.352 Y21.652 E79.40973
G1 X16.657 Y17.017 E79.54807
G1 X17.804 Y17.375 E79.58386
G1 X18.486 Y15.274 E79.64965
G1 X20.124 Y16.983 E79.72015
G1 X20.936 Y16.171 E79.75436
G1 X22.072 Y18.804 E79.83976
G1 X22.540 Y19.437 E79.86321
G0 F10500 X22.509 Y18.553
;TYPE:WALL-OUTER
G1 F1080 X23.033 Y19.263 E79.88949
G1 X23.368 Y27.673 E80.14017
G1 X20.343 Y27.816 E80.23036
G1 X19.841 Y27.836 E80.24533
G1 X16.382 Y23.183 E80.41801
G1 X15.847 Y21.724 E80.46429
G1 X16.182 Y16.618 E80.61669
G1 X16.213 Y16.354 E80.62461
G1 X17.481 Y16.750 E80.66417
G1 X18.179 Y14.602 E80.73144
G1 X18.512 Y14.579 E80.74138
G1 X20.131 Y16.268 E80.81106
G1 X21.103 Y15.297 E80.85198
G1 X22.509 Y18.553 E80.95761
G0 F10500 X21.872 Y18.785
;TYPE:SKIN
G1 F1380 X17.331 Y23.327 E81.14890
G0 F10500 X17.633 Y23.732
G1 F1380 X22.154 Y19.211 E81.33932
G0 F10500 X22.374 Y19.698
G1 F1380 X17.934 Y24.138 E81.52634
G0 F10500 X18.236 Y24.543
G1 F1380 X22.401 Y20.378 E81.70177
G0 F10500 X22.428 Y21.059
G1 F1380 X18.537 Y24.949 E81.86564
G0 F10500 X18.839 Y25.354
G1 F1380 X22.454 Y21.739 E82.01790
G0 F10500 X22.481 Y22.419
G1 F1380 X19.141 Y25.759 E82.15858
G0 F10500 X19.442 Y26.165
G1 F1380 X22.508 Y23.099 E82.28772
G0 F10500 X22.535 Y23.780
G1 F1380 X19.744 Y26.570 E82.40526
G0 F10500 X17.029 Y22.921
G1 F1380 X21.659 Y18.292 E82.60025
G0 F10500 X21.446 Y17.797
G1 F1380 X16.822 Y22.422 E82.79504
G0 F10500 X16.631 Y21.905
G1 F1380 X21.233 Y17.304 E82.98885
G0 F10500 X21.019 Y16.810
G1 F1380 X16.551 Y21.278 E83.17704
G0 F10500 X16.601 Y20.521
G1 F1380 X20.007 Y17.115 E83.32050
G0 F10500 X19.661 Y16.754
G1 F1380 X16.650 Y19.765 E83.44733
G0 F10500 X16.701 Y19.007
G1 F1380 X19.315 Y16.393 E83.55743
G0 F10500 X18.969 Y16.032
G1 F1380 X18.161 Y16.840 E83.59146
G0 F10500 X17.529 Y17.471
G1 F1380 X16.750 Y18.251 E83.62430
G0 F10500 X16.800 Y17.493
G1 F1380 X16.991 Y17.303 E83.63232
G0 F10500 X17.734 Y17.240
G0 X18.500 Y15.793
G1 F1380 X18.623 Y15.670 E83.63750
G0 F10500 X22.563 Y24.459
G1 F1380 X20.045 Y26.976 E83.74354
G0 F10500 X20.602 Y27.127
G1 F1380 X22.589 Y25.139 E83.82725
G0 F10500 X22.616 Y25.820
G1 F1380 X21.344 Y27.092 E83.88083
G0 F10500 X22.086 Y27.057
G1 F1380 X22.643 Y26.500 E83.90429
G1 F600 E82.40429
G1 Z0.905
G0 F10500 X25.417 Y23.917
;TYPE:WALL-INNER
G1 Z0.805
G1 F600 E83.90429
G1 F1140 X29.137 Y22.533 E84.02250
G1 X29.363 Y22.443 E84.02975
G1 X33.305 Y23.917 E84.15509
G1 X31.456 Y30.440 E84.35702
G1 X31.432 Y31.214 E84.38009
G1 X31.456 Y31.634 E84.39262
G1 X30.912 Y38.236 E84.58991
G1 X30.868 Y39.035 E84.61375
G1 X30.439 Y45.403 E84.80384
G1 X30.378 Y45.523 E84.80785
G1 X29.428 Y45.425 E84.83629
G1 X29.356 Y45.440 E84.83848
G1 X29.289 Y45.427 E84.84051
G1 X28.343 Y45.523 E84.86883
G1 X28.282 Y45.402 E84.87287
G1 X27.855 Y39.032 E85.06301
G1 X27.810 Y38.234 E85.08682
G1 X27.304 Y32.125 E85.26939
G1 X27.267 Y31.632 E85.28411
G1 X27.291 Y31.213 E85.29661
G1 X27.266 Y30.439 E85.31968
G1 X25.417 Y23.917 E85.52158
G0 F10500 X24.810 Y23.609
;TYPE:WALL-OUTER
G1 F1080 X28.957 Y22.066 E85.65336
G1 X29.362 Y21.905 E85.66635
G1 X33.912 Y23.609 E85.81105
G1 X31.954 Y30.517 E86.02490
G1 X31.933 Y31.207 E86.04546
G1 X31.957 Y31.643 E86.05846
G1 X31.918 Y32.163 E86.07400
G1 X31.411 Y38.270 E86.25651
G1 X31.367 Y39.062 E86.28013
G1 X30.931 Y45.539 E86.47348
G1 X30.669 Y46.055 E86.49071
G1 X29.453 Y45.930 E86.52712
G1 X29.360 Y45.949 E86.52995
G1 X29.267 Y45.932 E86.53276
G1 X28.052 Y46.055 E86.56913
G1 X27.790 Y45.538 E86.58640
G1 X27.356 Y39.061 E86.77974
G1 X27.311 Y38.269 E86.80336
G1 X26.806 Y32.162 E86.98587
G1 X26.766 Y31.642 E87.00140
G1 X26.790 Y31.207 E87.01438
G1 X26.768 Y30.516 E87.03497
G1 X24.810 Y23.609 E87.24879
G0 F10500 X25.672 Y24.178
;TYPE:SKIN
G1 F1380 X25.944 Y23.906 E87.26025
G0 F10500 X25.829 Y24.728
G1 F1380 X27.070 Y23.487 E87.31252
G0 F10500 X28.195 Y23.070
G1 F1380 X25.985 Y25.279 E87.40558
G0 F10500 X26.141 Y25.830
G1 F1380 X29.326 Y22.645 E87.53973
G0 F10500 X29.861 Y22.817
G1 F1380 X26.298 Y26.381 E87.68983
G0 F10500 X26.454 Y26.932
G1 F1380 X30.376 Y23.009 E87.85505
G0 F10500 X30.892 Y23.201
G1 F1380 X26.610 Y27.483 E88.03540
G0 F10500 X26.766 Y28.033
G1 F1380 X31.406 Y23.393 E88.23084
G0 F10500 X31.921 Y23.586
G1 F1380 X26.923 Y28.584 E88.44136
G0 F10500 X27.079 Y29.135
G1 F1380 X32.436 Y23.778 E88.66699
G0 F10500 X32.951 Y23.970
G1 F1380 X27.235 Y29.686 E88.90775
G0 F10500 X27.391 Y30.237
G1 F1380 X32.888 Y24.740 E89.13929
G0 F10500 X32.608 Y25.727
G1 F1380 X27.455 Y30.880 E89.35633
G0 F10500 X27.444 Y31.598
G1 F1380 X32.328 Y26.714 E89.56204
G0 F10500 X32.048 Y27.701
G1 F1380 X27.494 Y32.256 E89.75388
G0 F10500 X27.548 Y32.909
G1 F1380 X31.768 Y28.688 E89.93165
G0 F10500 X31.489 Y29.675
G1 F1380 X27.601 Y33.562 E90.09539
G0 F10500 X27.655 Y34.216
G1 F1380 X31.274 Y30.597 E90.24782
G0 F10500 X31.261 Y31.317
G1 F1380 X27.709 Y34.869 E90.39743
G0 F10500 X27.763 Y35.522
G1 F1380 X31.246 Y32.039 E90.54414
G0 F10500 X31.183 Y32.809
G1 F1380 X27.816 Y36.176 E90.68596
G0 F10500 X27.870 Y36.829
G1 F1380 X31.119 Y33.580 E90.82280
G0 F10500 X31.056 Y34.351
G1 F1380 X27.924 Y37.483 E90.95472
G0 F10500 X27.978 Y38.136
G1 F1380 X30.993 Y35.121 E91.08172
G0 F10500 X30.929 Y35.892
G1 F1380 X28.017 Y38.803 E91.20435
G0 F10500 X28.059 Y39.469
G1 F1380 X30.865 Y36.662 E91.32256
G0 F10500 X30.802 Y37.432
G1 F1380 X28.103 Y40.131 E91.43624
G0 F10500 X28.148 Y40.794
G1 F1380 X30.739 Y38.203 E91.54537
G0 F10500 X30.698 Y38.951
G1 F1380 X28.193 Y41.456 E91.65088
G0 F10500 X28.236 Y42.120
G1 F1380 X30.647 Y39.709 E91.75244
G0 F10500 X30.596 Y40.467
G1 F1380 X28.281 Y42.782 E91.84994
G0 F10500 X28.325 Y43.445
G1 F1380 X30.545 Y41.225 E91.94345
G0 F10500 X30.493 Y41.984
G1 F1380 X28.369 Y44.108 E92.03291
G0 F10500 X28.414 Y44.771
G1 F1380 X30.443 Y42.742 E92.11837
G0 F10500 X30.392 Y43.500
G1 F1380 X28.569 Y45.323 E92.19516
G0 F10500 X29.340 Y45.259
G1 F1380 X30.341 Y44.258 E92.23732
G0 F10500 X30.290 Y45.016
G1 F1380 X29.999 Y45.307 E92.24958
G1 F600 E90.74958
G1 Z0.905
G0 F10500 X35.876 Y27.197
;TYPE:WALL-INNER
G1 Z0.805
G1 F600 E92.24958
G1 F1140 X36.181 Y19.438 E92.48085
G1 X36.650 Y18.804 E92.50433
G1 X37.787 Y16.170 E92.58978
G1 X38.599 Y16.983 E92.62400
G1 X40.237 Y15.274 E92.69451
G1 X40.918 Y17.375 E92.76029
G1 X42.065 Y17.017 E92.79607
G1 X42.371 Y21.652 E92.93442
G1 X41.897 Y22.942 E92.97535
G1 X38.637 Y27.326 E93.13807
G1 X38.394 Y27.317 E93.14531
G1 X35.876 Y27.197 E93.22039
G0 F10500 X35.397 Y26.716
;TYPE:WALL-OUTER
G1 F1080 X35.688 Y19.263 E93.44253
G1 X36.214 Y18.553 E93.46885
G1 X37.620 Y15.297 E93.57448
G1 X38.592 Y16.268 E93.61540
G1 X40.211 Y14.578 E93.68510
G1 X40.545 Y14.602 E93.69508
G1 X41.241 Y16.750 E93.76233
G1 X42.510 Y16.354 E93.80192
G1 X42.877 Y21.725 E93.96226
G1 X42.341 Y23.184 E94.00855
G1 X38.882 Y27.835 E94.18118
G1 X38.379 Y27.817 E94.19617
G1 X35.355 Y27.672 E94.28634
G1 X35.397 Y26.716 E94.31484
G0 F10500 X36.078 Y26.500
;TYPE:SKIN
G1 F1380 X42.115 Y20.462 E94.56914
G0 F10500 X42.159 Y21.126
G1 F1380 X36.246 Y27.039 E94.81820
G0 F10500 X36.921 Y27.071
G1 F1380 X42.091 Y21.901 E95.03596
G0 F10500 X41.449 Y23.250
G1 F1380 X37.596 Y27.103 E95.19825
G0 F10500 X38.272 Y27.134
G1 F1380 X39.397 Y26.010 E95.24561
G0 F10500 X36.107 Y25.764
G1 F1380 X42.072 Y19.798 E95.49688
G0 F10500 X42.029 Y19.135
G1 F1380 X36.136 Y25.028 E95.74509
G0 F10500 X36.165 Y24.291
G1 F1380 X41.985 Y18.472 E95.99021
G0 F10500 X41.941 Y17.809
G1 F1380 X36.194 Y23.555 E96.23225
G0 F10500 X36.223 Y22.819
G1 F1380 X41.743 Y17.300 E96.46473
G0 F10500 X40.788 Y17.548
G1 F1380 X36.252 Y22.083 E96.65577
G0 F10500 X36.281 Y21.347
G1 F1380 X40.614 Y17.014 E96.83828
G0 F10500 X40.442 Y16.479
G1 F1380 X36.310 Y20.611 E97.01232
G0 F10500 X36.339 Y19.875
G1 F1380 X40.269 Y15.945 E97.17785
G0 F10500 X38.438 Y17.069
G1 F1380 X36.943 Y18.564 E97.24082
G0 F10500 X37.482 Y17.318
G1 F1380 X38.084 Y16.716 E97.26617
G1 F600 E95.76617
G1 Z0.905
G0 F10500 X51.321 Y16.950
;TYPE:WALL-INNER
G1 Z0.805
G1 F600 E97.26617
G1 F1140 X52.468 Y17.308 E97.30196
G1 X53.150 Y15.207 E97.36775
G1 X54.788 Y16.916 E97.43825
G1 X55.600 Y16.103 E97.47248
G1 X56.738 Y18.737 E97.55793
G1 X57.205 Y19.370 E97.58136
G1 X57.492 Y26.671 E97.79898
G1 X57.511 Y27.130 E97.81266
G1 X54.984 Y27.250 E97.88801
G1 X54.750 Y27.259 E97.89498
G1 X51.489 Y22.874 E98.05774
G1 X51.016 Y21.585 E98.09863
G1 X51.321 Y16.950 E98.23698
G0 F10500 X50.846 Y16.551
;TYPE:WALL-OUTER
G1 F1080 X50.877 Y16.287 E98.24489
G1 X52.145 Y16.683 E98.28446
G1 X52.843 Y14.535 E98.35173
G1 X53.176 Y14.512 E98.36167
G1 X54.795 Y16.201 E98.43135
G1 X55.767 Y15.230 E98.47227
G1 X57.174 Y18.486 E98.57791
G1 X57.698 Y19.196 E98.60419
G1 X58.032 Y27.606 E98.85487
G1 X55.007 Y27.749 E98.94506
G1 X54.505 Y27.769 E98.96003
G1 X51.046 Y23.116 E99.13271
G1 X50.511 Y21.657 E99.17899
G1 X50.846 Y16.551 E99.33139
G0 F10500 X51.693 Y17.249
;TYPE:SKIN
G1 F1380 X51.460 Y17.482 E99.34120
G0 F10500 X51.410 Y18.239
G1 F1380 X52.232 Y17.417 E99.37583
G0 F10500 X52.800 Y16.849
G1 F1380 X53.658 Y15.991 E99.41197
G0 F10500 X54.004 Y16.352
G1 F1380 X51.360 Y18.996 E99.52333
G0 F10500 X51.311 Y19.753
G1 F1380 X54.350 Y16.713 E99.65136
G0 F10500 X54.696 Y17.075
G1 F1380 X51.261 Y20.509 E99.79602
G0 F10500 X51.211 Y21.266
G1 F1380 X55.700 Y16.777 E99.98509
G0 F10500 X55.913 Y17.271
G1 F1380 X51.309 Y21.876 E100.17904
G0 F10500 X51.498 Y22.394
G1 F1380 X56.127 Y17.765 E100.37401
G0 F10500 X56.340 Y18.258
G1 F1380 X51.714 Y22.885 E100.56888
G0 F10500 X52.016 Y23.290
G1 F1380 X56.553 Y18.753 E100.75998
G0 F10500 X56.841 Y19.172
G1 F1380 X52.317 Y23.696 E100.95053
G0 F10500 X52.619 Y24.101
G1 F1380 X57.040 Y19.680 E101.13674
G0 F10500 X53.139 Y15.803
G1 F1380 X53.312 Y15.630 E101.14403
G0 F10500 X57.067 Y20.360
G1 F1380 X52.921 Y24.506 E101.31866
G0 F10500 X53.222 Y24.912
G1 F1380 X57.094 Y21.040 E101.48175
G0 F10500 X57.121 Y21.720
G1 F1380 X53.524 Y25.317 E101.63325
G0 F10500 X53.825 Y25.723
G1 F1380 X57.148 Y22.401 E101.77320
G0 F10500 X57.175 Y23.081
G1 F1380 X54.127 Y26.129 E101.90158
G0 F10500 X54.428 Y26.534
G1 F1380 X57.202 Y23.761 E102.01840
G0 F10500 X57.228 Y24.441
G1 F1380 X54.730 Y26.940 E102.12363
G0 F10500 X55.319 Y27.058
G1 F1380 X57.255 Y25.122 E102.20518
G0 F10500 X57.282 Y25.802
G1 F1380 X56.060 Y27.024 E102.25665
G0 F10500 X56.802 Y26.989
G1 F1380 X57.309 Y26.482 E102.27800
G1 F600 E100.77800
G1 Z0.905
G0 F10500 X60.082 Y23.851
;TYPE:WALL-INNER
G1 Z0.805
G1 F600 E102.27800
G1 F1140 X63.802 Y22.466 E102.39623
G1 X64.028 Y22.376 E102.40347
G1 X67.970 Y23.850 E102.52882
G1 X66.120 Y30.373 E102.73076
G1 X66.096 Y31.147 E102.75382
G1 X66.120 Y31.567 E102.76635
G1 X65.576 Y38.169 E102.96365
G1 X65.532 Y38.968 E102.98748
G1 X65.104 Y45.336 E103.17757
G1 X65.043 Y45.456 E103.18158
G1 X64.093 Y45.358 E103.21002
G1 X64.021 Y45.373 E103.21221
G1 X63.954 Y45.360 E103.21425
G1 X63.008 Y45.456 E103.24257
G1 X62.947 Y45.335 E103.24660
G1 X62.519 Y38.965 E103.43675
G1 X62.474 Y38.167 E103.46055
G1 X61.968 Y32.058 E103.64312
G1 X61.931 Y31.565 E103.65785
G1 X61.955 Y31.146 E103.67035
G1 X61.930 Y30.372 E103.69341
G1 X60.082 Y23.851 E103.89528
G0 F10500 X59.475 Y23.542
;TYPE:WALL-OUTER
G1 F1080 X63.622 Y21.999 E104.02706
G1 X64.027 Y21.838 E104.04004
G1 X68.577 Y23.542 E104.18475
G1 X66.618 Y30.450 E104.39861
G1 X66.597 Y31.140 E104.41917
G1 X66.621 Y31.576 E104.43217
G1 X66.582 Y32.096 E104.44770
G1 X66.075 Y38.203 E104.63021
G1 X66.031 Y38.995 E104.65384
G1 X65.596 Y45.472 E104.84718
G1 X65.334 Y45.988 E104.86442
G1 X64.118 Y45.863 E104.90082
G1 X64.025 Y45.882 E104.90365
G1 X63.932 Y45.865 E104.90647
G1 X62.717 Y45.988 E104.94284
G1 X62.455 Y45.471 E104.96010
G1 X62.020 Y38.994 E105.15344
G1 X61.975 Y38.202 E105.17707
G1 X61.470 Y32.095 E105.35958
G1 X61.430 Y31.575 E105.37511
G1 X61.454 Y31.140 E105.38809
G1 X61.432 Y30.449 E105.40868
G1 X59.475 Y23.542 E105.62249
G0 F10500 X60.349 Y24.149
;TYPE:SKIN
G1 F1380 X60.688 Y23.810 E105.63677
G0 F10500 X60.505 Y24.700
G1 F1380 X61.814 Y23.391 E105.69190
G0 F10500 X62.940 Y22.973
G1 F1380 X60.661 Y25.252 E105.78789
G0 F10500 X60.817 Y25.803
G1 F1380 X64.049 Y22.570 E105.92405
G0 F10500 X64.564 Y22.763
G1 F1380 X60.973 Y26.353 E106.07528
G0 F10500 X61.129 Y26.905
G1 F1380 X65.079 Y22.955 E106.24165
G0 F10500 X65.594 Y23.147
G1 F1380 X61.285 Y27.456 E106.42315
G0 F10500 X61.441 Y28.007
G1 F1380 X66.108 Y23.340 E106.61972
G0 F10500 X66.622 Y23.533
G1 F1380 X61.598 Y28.557 E106.83133
G0 F10500 X61.753 Y29.109
G1 F1380 X67.137 Y23.725 E107.05811
G0 F10500 X67.652 Y23.917
G1 F1380 X61.910 Y29.660 E107.29998
G0 F10500 X62.066 Y30.211
G1 F1380 X67.532 Y24.744 E107.53023
G0 F10500 X67.252 Y25.731
G1 F1380 X62.120 Y30.863 E107.74639
G0 F10500 X62.108 Y31.583
G1 F1380 X66.972 Y26.718 E107.95128
G0 F10500 X66.693 Y27.705
G1 F1380 X62.161 Y32.236 E108.14215
G0 F10500 X62.215 Y32.890
G1 F1380 X66.413 Y28.692 E108.31897
G0 F10500 X66.133 Y29.679
G1 F1380 X62.269 Y33.543 E108.48172
G0 F10500 X62.322 Y34.197
G1 F1380 X65.937 Y30.582 E108.63399
G0 F10500 X65.927 Y31.299
G1 F1380 X62.376 Y34.851 E108.78358
G0 F10500 X62.429 Y35.504
G1 F1380 X65.904 Y32.029 E108.92994
G0 F10500 X65.840 Y32.800
G1 F1380 X62.483 Y36.157 E109.07134
G0 F10500 X62.537 Y36.811
G1 F1380 X65.777 Y33.570 E109.20783
G0 F10500 X65.714 Y34.341
G1 F1380 X62.590 Y37.464 E109.33939
G0 F10500 X62.644 Y38.118
G1 F1380 X65.650 Y35.112 E109.46601
G0 F10500 X65.587 Y35.882
G1 F1380 X62.683 Y38.786 E109.58832
G0 F10500 X62.726 Y39.450
G1 F1380 X65.524 Y36.652 E109.70617
G0 F10500 X65.461 Y37.422
G1 F1380 X62.770 Y40.113 E109.81952
G0 F10500 X62.815 Y40.776
G1 F1380 X65.398 Y38.192 E109.92834
G0 F10500 X65.358 Y38.939
G1 F1380 X62.859 Y41.438 E110.03360
G0 F10500 X62.904 Y42.101
G1 F1380 X65.307 Y39.697 E110.13483
G0 F10500 X65.256 Y40.455
G1 F1380 X62.948 Y42.763 E110.23204
G0 F10500 X62.993 Y43.426
G1 F1380 X65.205 Y41.213 E110.32523
G0 F10500 X65.154 Y41.971
G1 F1380 X63.037 Y44.088 E110.41440
G0 F10500 X63.082 Y44.751
G1 F1380 X65.104 Y42.729 E110.49957
G0 F10500 X65.053 Y43.487
G1 F1380 X63.290 Y45.250 E110.57383
G0 F10500 X64.063 Y45.184
G1 F1380 X65.002 Y44.245 E110.61338
G0 F10500 X64.951 Y45.003
G1 F1380 X64.708 Y45.246 E110.62361
G1 F600 E109.12361
G1 Z0.905
G0 F10500 X70.540 Y27.130
;TYPE:WALL-INNER
G1 Z0.805
G1 F600 E110.62361
G1 F1140 X70.846 Y19.371 E110.85488
G1 X71.315 Y18.737 E110.87837
G1 X72.451 Y16.104 E110.96378
G1 X73.263 Y16.916 E110.99798
G1 X74.901 Y15.207 E111.06848
G1 X75.582 Y17.308 E111.13426
G1 X76.730 Y16.950 E111.17008
G1 X77.035 Y21.585 E111.30842
G1 X76.561 Y22.875 E111.34935
G1 X73.301 Y27.259 E111.51207
G1 X73.058 Y27.250 E111.51931
G1 X70.540 Y27.130 E111.59439
G0 F10500 X70.061 Y26.649
;TYPE:WALL-OUTER
G1 F1080 X70.353 Y19.196 E111.81654
G1 X70.879 Y18.486 E111.84285
G1 X72.284 Y15.230 E111.94847
G1 X73.256 Y16.201 E111.98939
G1 X74.875 Y14.511 E112.05909
G1 X75.209 Y14.535 E112.06907
G1 X75.905 Y16.683 E112.13632
G1 X77.175 Y16.287 E112.17594
G1 X77.541 Y21.658 E112.33628
G1 X77.005 Y23.117 E112.38257
G1 X73.546 Y27.768 E112.55520
G1 X73.043 Y27.750 E112.57019
G1 X70.019 Y27.605 E112.66036
G1 X70.061 Y26.649 E112.68886
G0 F10500 X70.740 Y26.486
;TYPE:SKIN
G1 F1380 X76.784 Y20.443 E112.94341
G0 F10500 X76.827 Y21.106
G1 F1380 X70.958 Y26.975 E113.19062
G0 F10500 X71.634 Y27.006
G1 F1380 X76.726 Y21.915 E113.40507
G0 F10500 X75.960 Y23.387
G1 F1380 X72.310 Y27.038 E113.55883
G0 F10500 X72.986 Y27.069
G1 F1380 X73.908 Y26.146 E113.59768
G0 F10500 X70.769 Y25.750
G1 F1380 X76.740 Y19.779 E113.84918
G0 F10500 X76.697 Y19.115
G1 F1380 X70.798 Y25.014 E114.09765
G0 F10500 X70.827 Y24.278
G1 F1380 X76.653 Y18.452 E114.34304
G0 F10500 X76.610 Y17.788
G1 F1380 X70.856 Y23.542 E114.58540
G0 F10500 X70.885 Y22.806
G1 F1380 X76.480 Y17.210 E114.82108
G0 F10500 X75.465 Y17.519
G1 F1380 X70.914 Y22.070 E115.01277
G0 F10500 X70.943 Y21.334
G1 F1380 X75.292 Y16.985 E115.19595
G0 F10500 X75.118 Y16.451
G1 F1380 X70.972 Y20.598 E115.37060
G0 F10500 X71.002 Y19.861
G1 F1380 X74.945 Y15.917 E115.53670
G0 F10500 X73.127 Y17.028
G1 F1380 X71.569 Y18.587 E115.60235
G0 F10500 X72.107 Y17.341
G1 F1380 X72.774 Y16.674 E115.63044
G1 F600 E114.13044
G1 Z0.905
G0 F10500 X83.623 Y19.281
;TYPE:WALL-INNER
G1 Z0.805
G1 F600 E115.63044
G1 F1140 X83.927 Y14.646 E115.76878
G1 X85.076 Y15.004 E115.80463
G1 X85.757 Y12.903 E115.87041
G1 X87.395 Y14.612 E115.94091
G1 X88.207 Y13.800 E115.97511
G1 X89.343 Y16.433 E116.06052
G1 X89.811 Y17.066 E116.08397
G1 X90.099 Y24.367 E116.30158
G1 X90.118 Y24.826 E116.31527
G1 X87.591 Y24.946 E116.39061
G1 X87.357 Y24.955 E116.39759
G1 X84.096 Y20.570 E116.56034
G1 X83.623 Y19.281 E116.60124
G0 F10500 X83.118 Y19.353
;TYPE:WALL-OUTER
G1 F1080 X83.452 Y14.247 E116.75364
G1 X83.483 Y13.983 E116.76155
G1 X84.753 Y14.379 E116.80117
G1 X85.450 Y12.231 E116.86843
G1 X85.783 Y12.208 E116.87837
G1 X87.402 Y13.897 E116.94806
G1 X88.374 Y12.926 E116.98898
G1 X89.780 Y16.182 E117.09460
G1 X90.304 Y16.892 E117.12089
G1 X90.639 Y25.302 E117.37156
G1 X87.614 Y25.445 E117.46176
G1 X87.112 Y25.465 E117.47672
G1 X83.653 Y20.812 E117.64940
G1 X83.118 Y19.353 E117.69568
G0 F10500 X83.811 Y19.072
;TYPE:SKIN
G1 F1380 X88.336 Y14.547 E117.88628
G0 F10500 X88.550 Y15.040
G1 F1380 X83.943 Y19.647 E118.08033
G0 F10500 X84.132 Y20.165
G1 F1380 X88.763 Y15.534 E118.27538
G0 F10500 X88.976 Y16.028
G1 F1380 X84.365 Y20.639 E118.46960
G0 F10500 X84.666 Y21.045
G1 F1380 X89.190 Y16.522 E118.66013
G0 F10500 X89.490 Y16.928
G1 F1380 X84.968 Y21.450 E118.85060
G0 F10500 X85.270 Y21.856
G1 F1380 X89.651 Y17.475 E119.03512
G0 F10500 X89.678 Y18.155
G1 F1380 X85.571 Y22.261 E119.20809
G0 F10500 X85.873 Y22.667
G1 F1380 X89.704 Y18.835 E119.36947
G0 F10500 X89.731 Y19.516
G1 F1380 X86.175 Y23.072 E119.51925
G0 F10500 X86.477 Y23.478
G1 F1380 X89.758 Y20.196 E119.65747
G0 F10500 X89.785 Y20.876
G1 F1380 X86.778 Y23.883 E119.78412
G0 F10500 X87.080 Y24.289
G1 F1380 X89.812 Y21.556 E119.89922
G0 F10500 X89.839 Y22.237
G1 F1380 X87.381 Y24.694 E120.00273
G0 F10500 X88.034 Y24.749
G1 F1380 X89.866 Y22.917 E120.07989
G0 F10500 X89.893 Y23.597
G1 F1380 X88.775 Y24.714 E120.12696
G0 F10500 X89.518 Y24.679
G1 F1380 X89.919 Y24.277 E120.14387
G0 F10500 X83.860 Y18.316
G1 F1380 X87.353 Y14.823 E120.29100
G0 F10500 X87.007 Y14.462
G1 F1380 X83.910 Y17.559 E120.42144
G0 F10500 X83.959 Y16.802
G1 F1380 X86.660 Y14.101 E120.53521
G0 F10500 X86.315 Y13.740
G1 F1380 X85.360 Y14.695 E120.57543
G0 F10500 X84.917 Y15.137
G1 F1380 X84.009 Y16.046 E120.61370
G0 F10500 X84.058 Y15.289
G1 F1380 X84.378 Y14.970 E120.62716
G0 F10500 X85.005 Y14.868
G0 X85.698 Y13.649
G1 F1380 X85.968 Y13.379 E120.63853
G1 F600 E119.13853
G1 Z0.905
G0 F10500 X92.688 Y21.546
;TYPE:WALL-INNER
G1 Z0.805
G1 F600 E120.63853
G1 F1140 X96.408 Y20.162 E120.75674
G1 X96.634 Y20.072 E120.76399
G1 X100.576 Y21.546 E120.88933
G1 X98.727 Y28.069 E121.09126
G1 X98.703 Y28.843 E121.11433
G1 X98.727 Y29.263 E121.12686
G1 X98.183 Y35.865 E121.32415
G1 X98.139 Y36.664 E121.34799
G1 X97.710 Y43.032 E121.53808
G1 X97.649 Y43.152 E121.54209
G1 X96.699 Y43.054 E121.57053
G1 X96.627 Y43.069 E121.57272
G1 X96.560 Y43.056 E121.57475
G1 X95.614 Y43.152 E121.60307
G1 X95.553 Y43.031 E121.60711
G1 X95.126 Y36.661 E121.79726
G1 X95.081 Y35.863 E121.82106
G1 X94.575 Y29.754 E122.00363
G1 X94.538 Y29.261 E122.01835
G1 X94.562 Y28.842 E122.03085
G1 X94.537 Y28.068 E122.05392
G1 X92.688 Y21.546 E122.25582
G0 F10500 X92.081 Y21.238
;TYPE:WALL-OUTER
G1 F1080 X96.228 Y19.695 E122.38761
G1 X96.633 Y19.534 E122.40059
G1 X101.183 Y21.238 E122.54529
G1 X99.225 Y28.146 E122.75914
G1 X99.204 Y28.836 E122.77970
G1 X99.228 Y29.272 E122.79271
G1 X99.189 Y29.792 E122.80824
G1 X98.682 Y35.899 E122.99075
G1 X98.638 Y36.691 E123.01437
G1 X98.202 Y43.168 E123.20772
G1 X97.940 Y43.684 E123.22495
G1 X96.724 Y43.559 E123.26136
G1 X96.631 Y43.578 E123.26419
G1 X96.538 Y43.561 E123.26700
G1 X95.323 Y43.684 E123.30338
G1 X95.061 Y43.167 E123.32064
G1 X94.627 Y36.690 E123.51398
G1 X94.582 Y35.898 E123.53760
G1 X94.077 Y29.791 E123.72011
G1 X94.037 Y29.271 E123.73564
G1 X94.061 Y28.836 E123.74862
G1 X94.039 Y28.145 E123.76921
G1 X92.081 Y21.238 E123.98303
G0 F10500 X92.978 Y21.926
;TYPE:SKIN
G1 F1380 X93.460 Y21.444 E124.00333
G0 F10500 X93.133 Y22.478
G1 F1380 X94.585 Y21.026 E124.06449
G0 F10500 X95.711 Y20.607
G1 F1380 X93.290 Y23.029 E124.16648
G0 F10500 X93.446 Y23.579
G1 F1380 X96.730 Y20.295 E124.30481
G0 F10500 X97.245 Y20.487
G1 F1380 X93.602 Y24.130 E124.45825
G0 F10500 X93.758 Y24.681
G1 F1380 X97.760 Y20.680 E124.62679
G0 F10500 X98.275 Y20.872
G1 F1380 X93.915 Y25.232 E124.81044
G0 F10500 X94.071 Y25.783
G1 F1380 X98.789 Y21.064 E125.00918
G0 F10500 X99.304 Y21.257
G1 F1380 X94.227 Y26.334 E125.22302
G0 F10500 X94.383 Y26.884
G1 F1380 X99.819 Y21.449 E125.45197
G0 F10500 X100.334 Y21.641
G1 F1380 X94.540 Y27.435 E125.69601
G0 F10500 X94.696 Y27.986
G1 F1380 X100.098 Y22.584 E125.92354
G0 F10500 X99.818 Y23.571
G1 F1380 X94.730 Y28.659 E126.13785
G0 F10500 X94.722 Y29.374
G1 F1380 X99.538 Y24.558 E126.34070
G0 F10500 X99.258 Y25.545
G1 F1380 X94.776 Y30.027 E126.52948
G0 F10500 X94.830 Y30.681
G1 F1380 X98.979 Y26.532 E126.70424
G0 F10500 X98.699 Y27.519
G1 F1380 X94.883 Y31.334 E126.86495
G0 F10500 X94.937 Y31.988
G1 F1380 X98.541 Y28.383 E127.01677
G0 F10500 X98.540 Y29.092
G1 F1380 X94.991 Y32.641 E127.16625
G0 F10500 X95.045 Y33.294
G1 F1380 X98.502 Y29.837 E127.31186
G0 F10500 X98.439 Y30.607
G1 F1380 X95.098 Y33.948 E127.45259
G0 F10500 X95.152 Y34.601
G1 F1380 X98.376 Y31.377 E127.58838
G0 F10500 X98.312 Y32.148
G1 F1380 X95.205 Y35.255 E127.71925
G0 F10500 X95.257 Y35.910
G1 F1380 X98.249 Y32.918 E127.84527
G0 F10500 X98.186 Y33.689
G1 F1380 X95.295 Y36.580 E127.96704
G0 F10500 X95.339 Y37.242
G1 F1380 X98.123 Y34.459 E128.08428
G0 F10500 X98.059 Y35.230
G1 F1380 X95.384 Y37.905 E128.19695
G0 F10500 X95.428 Y38.568
G1 F1380 X98.000 Y35.996 E128.30529
G0 F10500 X97.956 Y36.746
G1 F1380 X95.472 Y39.230 E128.40991
G0 F10500 X95.517 Y39.893
G1 F1380 X97.906 Y37.504 E128.51054
G0 F10500 X97.855 Y38.262
G1 F1380 X95.561 Y40.556 E128.60716
G0 F10500 X95.605 Y41.219
G1 F1380 X97.804 Y39.020 E128.69978
G0 F10500 X97.753 Y39.778
G1 F1380 X95.650 Y41.881 E128.78836
G0 F10500 X95.694 Y42.544
G1 F1380 X97.702 Y40.537 E128.87292
G0 F10500 X97.651 Y41.295
G1 F1380 X96.010 Y42.935 E128.94202
G0 F10500 X96.767 Y42.886
G1 F1380 X97.600 Y42.053 E128.97710
G0 F10500 X97.549 Y42.811
G1 F1380 X97.408 Y42.951 E128.98302
G1 F600 E127.48302
G1 Z0.905
G0 F10500 X103.147 Y24.826
;TYPE:WALL-INNER
G1 Z0.805
G1 F600 E128.98302
G1 F1140 X103.452 Y17.067 E129.21429
G1 X103.921 Y16.433 E129.23777
G1 X105.058 Y13.799 E129.32322
G1 X105.870 Y14.612 E129.35744
G1 X107.508 Y12.903 E129.42795
G1 X108.189 Y15.004 E129.49373
G1 X109.336 Y14.646 E129.52951
G1 X109.642 Y19.281 E129.66786
G1 X109.168 Y20.571 E129.70879
G1 X105.907 Y24.955 E129.87152
G1 X105.664 Y24.946 E129.87877
G1 X103.147 Y24.826 E129.95382
G0 F10500 X102.668 Y24.345
;TYPE:WALL-OUTER
G1 F1080 X102.959 Y16.892 E130.17596
G1 X103.485 Y16.182 E130.20228
G1 X104.891 Y12.926 E130.30791
G1 X105.863 Y13.897 E130.34883
G1 X107.482 Y12.207 E130.41853
G1 X107.816 Y12.231 E130.42850
G1 X108.512 Y14.379 E130.49575
G1 X109.781 Y13.983 E130.53535
G1 X110.148 Y19.354 E130.69569
G1 X109.612 Y20.813 E130.74198
G1 X106.152 Y25.464 E130.91463
G1 X105.649 Y25.446 E130.92962
G1 X102.626 Y25.301 E131.01976
G1 X102.668 Y24.345 E131.04826
G0 F10500 X103.342 Y24.289
;TYPE:SKIN
G1 F1380 X109.396 Y18.236 E131.30323
G0 F10500 X109.440 Y18.899
G1 F1380 X103.663 Y24.675 E131.54654
G0 F10500 X104.339 Y24.707
G1 F1380 X109.274 Y19.772 E131.75440
G0 F10500 X109.353 Y17.572
G1 F1380 X103.371 Y23.553 E132.00634
G0 F10500 X103.400 Y22.817
G1 F1380 X109.309 Y16.909 E132.25521
G0 F10500 X109.265 Y16.245
G1 F1380 X103.429 Y22.081 E132.50102
G0 F10500 X103.458 Y21.345
G1 F1380 X109.221 Y15.582 E132.74376
G0 F10500 X109.177 Y14.919
G1 F1380 X103.487 Y20.609 E132.98342
G0 F10500 X105.015 Y24.738
G1 F1380 X108.272 Y21.481 E133.12061
G0 F10500 X106.215 Y24.245
G1 F1380 X105.691 Y24.769 E133.14268
G0 F10500 X103.516 Y19.873
G1 F1380 X108.209 Y15.180 E133.34035
G0 F10500 X107.923 Y14.759
G1 F1380 X103.545 Y19.137 E133.52475
G0 F10500 X103.574 Y18.401
G1 F1380 X107.751 Y14.224 E133.70069
G0 F10500 X107.577 Y13.691
G1 F1380 X103.603 Y17.664 E133.86805
G0 F10500 X104.097 Y16.464
G1 F1380 X105.786 Y14.775 E133.93919
G0 F10500 X105.432 Y14.422
G1 F1380 X104.635 Y15.219 E133.97276
;LAYER:2
G1 F600 E132.47276
G1 Z0.905
G0 F10500 X22.452 Y19.488 Z1.185
;TYPE:WALL-INNER
G1 Z1.185
G1 F600 E133.97276
G1 F1440 X22.713 Y26.103 E134.16993
G1 X22.764 Y27.305 E134.20576
G1 X20.712 Y27.403 E134.26695
G1 X20.085 Y27.428 E134.28564
G1 X17.376 Y23.784 E134.42087
G1 X16.553 Y21.540 E134.49206
G1 X16.847 Y17.058 E134.62583
G1 X16.848 Y17.046 E134.62619
G1 X17.795 Y17.341 E134.65574
G1 X18.431 Y15.384 E134.71702
G1 X18.576 Y15.374 E134.72135
G1 X20.131 Y16.996 E134.78827
G1 X20.766 Y16.361 E134.81502
G1 X21.643 Y18.393 E134.88094
G1 X22.452 Y19.488 E134.92148
G0 F10500 X22.080 Y18.142
;TYPE:WALL-OUTER
G1 F1320 X22.945 Y19.314 E134.96487
G1 X23.285 Y27.781 E135.21725
G1 X20.736 Y27.902 E135.29325
G1 X19.841 Y27.937 E135.31993
G1 X16.931 Y24.023 E135.46519
G1 X16.047 Y21.613 E135.54164
G1 X16.350 Y17.000 E135.67933
G1 X16.421 Y16.388 E135.69768
G1 X17.472 Y16.716 E135.73047
G1 X18.060 Y14.908 E135.78709
G1 X18.775 Y14.859 E135.80844
G1 X20.138 Y16.281 E135.86710
G1 X20.933 Y15.487 E135.90057
G1 X22.080 Y18.142 E135.98671
G0 F10500 X21.359 Y18.177
;TYPE:SKIN
G1 F1920 X20.277 Y17.095 E136.03228
G0 F10500 X20.631 Y16.742
G1 F1920 X20.820 Y16.931 E136.04024
G0 F10500 X18.428 Y15.953
G1 F1920 X22.288 Y19.813 E136.20283
G0 F10500 X22.318 Y20.550
G1 F1920 X18.254 Y16.486 E136.37400
G0 F10500 X18.081 Y17.020
G1 F1920 X22.348 Y21.287 E136.55373
G0 F10500 X22.377 Y22.023
G1 F1920 X17.907 Y17.553 E136.74200
G0 F10500 X17.000 Y17.354
G1 F1920 X22.406 Y22.760 E136.96971
G0 F10500 X22.436 Y23.497
G1 F1920 X16.957 Y18.018 E137.20048
G0 F10500 X16.913 Y18.681
G1 F1920 X22.465 Y24.233 E137.43433
G0 F10500 X22.495 Y24.970
G1 F1920 X16.870 Y19.345 E137.67126
G0 F10500 X16.827 Y20.009
G1 F1920 X22.524 Y25.706 E137.91121
G0 F10500 X22.553 Y26.442
G1 F1920 X16.783 Y20.672 E138.15425
G0 F10500 X16.740 Y21.336
G1 F1920 X22.541 Y27.138 E138.39861
G0 F10500 X21.867 Y27.170
G1 F1920 X17.030 Y22.333 E138.60234
G0 F10500 X17.440 Y23.451
G1 F1920 X21.191 Y27.201 E138.76031
G0 F10500 X20.515 Y27.232
G1 F1920 X19.125 Y25.843 E138.81884
G1 F600 E137.31884
G1 Z1.285
G0 F10500 X25.332 Y23.666
;TYPE:WALL-INNER
G1 Z1.185
G1 F600 E138.81884
G1 F1440 X28.832 Y22.363 E138.93007
G1 X29.362 Y22.151 E138.94707
G1 X29.892 Y22.362 E138.96406
G1 X33.391 Y23.665 E139.07527
G1 X31.643 Y29.831 E139.26615
G1 X31.607 Y31.004 E139.30110
G1 X31.646 Y31.693 E139.32165
G1 X31.583 Y32.522 E139.34641
G1 X31.111 Y38.207 E139.51631
G1 X31.041 Y39.484 E139.55441
G1 X30.652 Y45.249 E139.72650
G1 X30.377 Y45.763 E139.74386
G1 X30.352 Y45.815 E139.74558
G1 X29.494 Y45.726 E139.77127
G1 X29.358 Y45.754 E139.77540
G1 X29.225 Y45.728 E139.77944
G1 X28.370 Y45.815 E139.80504
G1 X28.069 Y45.248 E139.82416
G1 X27.684 Y39.492 E139.99597
G1 X27.611 Y38.206 E140.03434
G1 X27.140 Y32.520 E140.20426
G1 X27.077 Y31.692 E140.22900
G1 X27.116 Y31.003 E140.24955
G1 X27.079 Y29.829 E140.28453
G1 X25.332 Y23.666 E140.47532
G0 F10500 X24.725 Y23.357
;TYPE:WALL-OUTER
G1 F1320 X28.652 Y21.896 E140.60011
G1 X29.362 Y21.613 E140.62287
G1 X30.071 Y21.895 E140.64560
G1 X33.998 Y23.357 E140.77040
G1 X32.141 Y29.908 E140.97320
G1 X32.108 Y30.997 E141.00565
G1 X32.147 Y31.703 E141.02671
G1 X32.082 Y32.558 E141.05225
G1 X31.610 Y38.242 E141.22212
G1 X31.539 Y39.521 E141.26027
G1 X31.144 Y45.390 E141.43546
G1 X30.824 Y45.988 E141.45566
G1 X30.653 Y46.349 E141.46756
G1 X29.518 Y46.231 E141.50155
G1 X29.359 Y46.263 E141.50638
G1 X29.202 Y46.233 E141.51114
G1 X28.068 Y46.348 E141.54509
G1 X27.898 Y45.988 E141.55694
G1 X27.577 Y45.389 E141.57718
G1 X27.184 Y39.520 E141.75237
G1 X27.112 Y38.241 E141.79053
G1 X26.642 Y32.557 E141.96039
G1 X26.576 Y31.702 E141.98593
G1 X26.615 Y30.997 E142.00696
G1 X26.581 Y29.906 E142.03947
G1 X24.725 Y23.357 E142.24221
G0 F10500 X25.544 Y23.777
;TYPE:SKIN
G1 F1920 X31.491 Y29.723 E142.49267
G0 F10500 X31.647 Y29.172
G1 F1920 X26.057 Y23.582 E142.72812
G0 F10500 X26.573 Y23.391
G1 F1920 X31.803 Y28.621 E142.94841
G0 F10500 X31.959 Y28.070
G1 F1920 X27.088 Y23.199 E143.15358
G0 F10500 X27.604 Y23.007
G1 F1920 X32.116 Y27.519 E143.34362
G0 F10500 X32.271 Y26.968
G1 F1920 X28.118 Y22.815 E143.51855
G0 F10500 X28.634 Y22.623
G1 F1920 X32.427 Y26.417 E143.67833
G0 F10500 X32.584 Y25.866
G1 F1920 X29.144 Y22.426 E143.82322
G0 F10500 X30.023 Y22.598
G1 F1920 X32.740 Y25.315 E143.93767
G0 F10500 X32.896 Y24.765
G1 F1920 X31.148 Y23.017 E144.01129
G0 F10500 X32.275 Y23.436
G1 F1920 X33.052 Y24.213 E144.04402
G0 F10500 X31.450 Y30.390
G1 F1920 X25.824 Y24.764 E144.28099
G0 F10500 X26.104 Y25.750
G1 F1920 X31.435 Y31.082 E144.50555
G0 F10500 X31.460 Y31.814
G1 F1920 X26.384 Y26.737 E144.71937
G0 F10500 X26.664 Y27.724
G1 F1920 X31.406 Y32.467 E144.91913
G0 F10500 X31.353 Y33.120
G1 F1920 X26.943 Y28.711 E145.10485
G0 F10500 X27.223 Y29.698
G1 F1920 X31.300 Y33.774 E145.27656
G0 F10500 X31.246 Y34.428
G1 F1920 X27.273 Y30.455 E145.44390
G0 F10500 X27.280 Y31.169
G1 F1920 X31.192 Y35.081 E145.60867
G0 F10500 X31.139 Y35.735
G1 F1920 X27.266 Y31.862 E145.77180
G0 F10500 X27.328 Y32.632
G1 F1920 X31.085 Y36.389 E145.93005
G0 F10500 X31.032 Y37.042
G1 F1920 X27.392 Y33.403 E146.08335
G0 F10500 X27.455 Y34.173
G1 F1920 X30.978 Y37.695 E146.23171
G0 F10500 X30.928 Y38.353
G1 F1920 X27.518 Y34.943 E146.37534
G0 F10500 X27.581 Y35.713
G1 F1920 X30.890 Y39.022 E146.51472
G0 F10500 X30.852 Y39.691
G1 F1920 X27.645 Y36.483 E146.64982
G0 F10500 X27.707 Y37.253
G1 F1920 X30.807 Y40.353 E146.78039
G0 F10500 X30.763 Y41.016
G1 F1920 X27.770 Y38.023 E146.90646
G0 F10500 X27.817 Y38.777
G1 F1920 X30.718 Y41.678 E147.02865
G0 F10500 X30.673 Y42.340
G1 F1920 X27.860 Y39.527 E147.14713
G0 F10500 X27.911 Y40.285
G1 F1920 X30.629 Y43.003 E147.26161
G0 F10500 X30.584 Y43.665
G1 F1920 X27.961 Y41.043 E147.37207
G0 F10500 X28.012 Y41.801
G1 F1920 X30.539 Y44.328 E147.47851
G0 F10500 X30.494 Y44.990
G1 F1920 X28.062 Y42.558 E147.58095
G0 F10500 X28.113 Y43.316
G1 F1920 X30.311 Y45.514 E147.67353
G0 F10500 X29.656 Y45.565
G1 F1920 X28.164 Y44.074 E147.73635
G0 F10500 X28.214 Y44.831
G1 F1920 X28.960 Y45.577 E147.76777
G1 F600 E146.26777
G1 Z1.285
G0 F10500 X35.959 Y27.305
;TYPE:WALL-INNER
G1 Z1.185
G1 F600 E147.76777
G1 F1440 X36.011 Y26.102 E147.80363
G1 X36.269 Y19.488 E148.00077
G1 X37.080 Y18.393 E148.04135
G1 X37.957 Y16.361 E148.10727
G1 X38.592 Y16.996 E148.13401
G1 X40.147 Y15.373 E148.20096
G1 X40.293 Y15.384 E148.20532
G1 X40.927 Y17.341 E148.26659
G1 X41.874 Y17.045 E148.29614
G1 X42.171 Y21.541 E148.43034
G1 X41.346 Y23.784 E148.50152
G1 X38.637 Y27.427 E148.63673
G1 X38.010 Y27.404 E148.65541
G1 X35.959 Y27.305 E148.71657
G0 F10500 X35.512 Y26.081
;TYPE:WALL-OUTER
G1 F1320 X35.776 Y19.314 E148.91827
G1 X36.644 Y18.142 E148.96171
G1 X37.790 Y15.487 E149.04783
G1 X38.585 Y16.281 E149.08130
G1 X39.948 Y14.858 E149.13998
G1 X40.664 Y14.908 E149.16136
G1 X41.250 Y16.716 E149.21797
G1 X42.302 Y16.388 E149.25079
G1 X42.371 Y16.989 E149.26880
G1 X42.677 Y21.614 E149.40685
G1 X41.791 Y24.024 E149.48333
G1 X38.882 Y27.936 E149.62852
G1 X37.986 Y27.903 E149.65523
G1 X35.438 Y27.780 E149.73120
G1 X35.512 Y26.081 E149.78185
G0 F10500 X36.189 Y25.935
;TYPE:SKIN
G1 F1920 X37.450 Y27.197 E149.83499
G0 F10500 X36.710 Y27.164
G1 F1920 X36.162 Y26.616 E149.85807
G0 F10500 X36.215 Y25.255
G1 F1920 X38.190 Y27.230 E149.94126
G0 F10500 X38.707 Y27.039
G1 F1920 X36.242 Y24.575 E150.04506
G0 F10500 X36.269 Y23.895
G1 F1920 X39.008 Y26.633 E150.16041
G0 F10500 X39.310 Y26.228
G1 F1920 X36.296 Y23.215 E150.28734
G0 F10500 X36.323 Y22.534
G1 F1920 X39.611 Y25.822 E150.42583
G0 F10500 X39.913 Y25.417
G1 F1920 X36.350 Y21.854 E150.57590
G0 F10500 X36.377 Y21.174
G1 F1920 X40.214 Y25.011 E150.73752
G0 F10500 X40.516 Y24.606
G1 F1920 X36.403 Y20.494 E150.91073
G0 F10500 X36.430 Y19.813
G1 F1920 X40.817 Y24.200 E151.09551
G0 F10500 X41.119 Y23.795
G1 F1920 X36.624 Y19.300 E151.28484
G0 F10500 X36.925 Y18.893
G1 F1920 X41.336 Y23.304 E151.47064
G0 F10500 X41.525 Y22.787
G1 F1920 X37.226 Y18.488 E151.65171
G0 F10500 X37.441 Y17.995
G1 F1920 X41.715 Y22.270 E151.83175
G0 F10500 X41.905 Y21.752
G1 F1920 X37.654 Y17.501 E152.01080
G0 F10500 X37.867 Y17.008
G1 F1920 X41.966 Y21.107 E152.18345
G0 F10500 X41.916 Y20.349
G1 F1920 X38.700 Y17.133 E152.31891
G0 F10500 X39.047 Y16.773
G1 F1920 X41.867 Y19.593 E152.43769
G0 F10500 X41.816 Y18.835
G1 F1920 X39.392 Y16.411 E152.53979
G0 F10500 X39.739 Y16.051
G1 F1920 X40.605 Y16.917 E152.57627
G0 F10500 X41.144 Y17.456
G1 F1920 X41.767 Y18.079 E152.60251
G0 F10500 X40.266 Y15.871
G1 F1920 X40.085 Y15.689 E152.61015
G1 F600 E151.11015
G1 Z1.285
G0 F10500 X51.511 Y16.991
;TYPE:WALL-INNER
G1 Z1.185
G1 F600 E152.61015
G1 F1440 X51.512 Y16.979 E152.61051
G1 X52.459 Y17.274 E152.64005
G1 X53.095 Y15.317 E152.70134
G1 X53.240 Y15.307 E152.70567
G1 X54.795 Y16.929 E152.77259
G1 X55.430 Y16.293 E152.79936
G1 X56.308 Y18.326 E152.86531
G1 X57.117 Y19.422 E152.90589
G1 X57.377 Y26.036 E153.10302
G1 X57.428 Y27.238 E153.13886
G1 X55.376 Y27.336 E153.20004
G1 X54.749 Y27.361 E153.21873
G1 X52.040 Y23.717 E153.35397
G1 X51.217 Y21.473 E153.42515
G1 X51.511 Y16.991 E153.55893
G0 F10500 X51.014 Y16.933
;TYPE:WALL-OUTER
G1 F1320 X51.085 Y16.321 E153.57728
G1 X52.136 Y16.649 E153.61007
G1 X52.724 Y14.841 E153.66669
G1 X53.439 Y14.792 E153.68804
G1 X54.802 Y16.214 E153.74671
G1 X55.597 Y15.420 E153.78017
G1 X56.744 Y18.075 E153.86631
G1 X57.610 Y19.248 E153.90973
G1 X57.949 Y27.714 E154.16208
G1 X55.400 Y27.835 E154.23808
G1 X54.505 Y27.870 E154.26476
G1 X51.595 Y23.956 E154.41002
G1 X50.711 Y21.546 E154.48648
G1 X51.014 Y16.933 E154.62416
G0 F10500 X51.659 Y17.365
;TYPE:SKIN
G1 F1920 X57.074 Y22.780 E154.85224
G0 F10500 X57.045 Y22.044
G1 F1920 X52.458 Y17.457 E155.04545
G0 F10500 X52.725 Y17.016
G1 F1920 X57.016 Y21.307 E155.22619
G0 F10500 X56.987 Y20.571
G1 F1920 X52.898 Y16.482 E155.39841
G0 F10500 X53.071 Y15.948
G1 F1920 X56.957 Y19.834 E155.56209
G0 F10500 X56.087 Y18.257
G1 F1920 X54.900 Y17.070 E155.61209
G0 F10500 X55.254 Y16.716
G1 F1920 X55.548 Y17.011 E155.62449
G0 F10500 X51.616 Y18.029
G1 F1920 X57.104 Y23.516 E155.85563
G0 F10500 X57.133 Y24.253
G1 F1920 X51.572 Y18.692 E156.08986
G0 F10500 X51.529 Y19.356
G1 F1920 X57.162 Y24.989 E156.32712
G0 F10500 X57.192 Y25.725
G1 F1920 X51.485 Y20.019 E156.56748
G0 F10500 X51.442 Y20.683
G1 F1920 X57.221 Y26.462 E156.81089
G0 F10500 X57.129 Y27.077
G1 F1920 X51.399 Y21.347 E157.05224
G0 F10500 X51.741 Y22.396
G1 F1920 X56.453 Y27.108 E157.25071
G0 F10500 X55.777 Y27.139
G1 F1920 X52.151 Y23.514 E157.40341
G0 F10500 X54.023 Y26.092
G1 F1920 X55.101 Y27.170 E157.44882
G1 F600 E155.94882
G1 Z1.285
G0 F10500 X59.996 Y23.599
;TYPE:WALL-INNER
G1 Z1.185
G1 F600 E157.44882
G1 F1440 X63.497 Y22.296 E157.56008
G1 X64.027 Y22.084 E157.57708
G1 X64.557 Y22.295 E157.59407
G1 X68.055 Y23.598 E157.70524
G1 X66.307 Y29.764 E157.89613
G1 X66.271 Y30.937 E157.93108
G1 X66.310 Y31.626 E157.95163
G1 X66.247 Y32.455 E157.97639
G1 X65.775 Y38.140 E158.14629
G1 X65.704 Y39.427 E158.18468
G1 X65.317 Y45.182 E158.35647
G1 X65.042 Y45.696 E158.37384
G1 X65.017 Y45.748 E158.37556
G1 X64.159 Y45.659 E158.40125
G1 X64.023 Y45.687 E158.40538
G1 X63.890 Y45.661 E158.40942
G1 X63.035 Y45.748 E158.43501
G1 X62.734 Y45.181 E158.45413
G1 X62.348 Y39.425 E158.62595
G1 X62.275 Y38.139 E158.66431
G1 X61.804 Y32.453 E158.83424
G1 X61.741 Y31.625 E158.85898
G1 X61.780 Y30.936 E158.87953
G1 X61.743 Y29.762 E158.91451
G1 X59.996 Y23.599 E159.10530
G0 F10500 X59.389 Y23.290
;TYPE:WALL-OUTER
G1 F1320 X63.317 Y21.829 E159.23012
G1 X64.027 Y21.546 E159.25288
G1 X64.736 Y21.828 E159.27561
G1 X68.662 Y23.290 E159.40038
G1 X66.805 Y29.841 E159.60318
G1 X66.772 Y30.930 E159.63563
G1 X66.811 Y31.636 E159.65669
G1 X66.746 Y32.491 E159.68223
G1 X66.274 Y38.175 E159.85210
G1 X66.203 Y39.454 E159.89025
G1 X65.809 Y45.323 E160.06544
G1 X65.489 Y45.921 E160.08564
G1 X65.318 Y46.282 E160.09754
G1 X64.183 Y46.164 E160.13153
G1 X64.024 Y46.196 E160.13636
G1 X63.867 Y46.166 E160.14112
G1 X62.733 Y46.281 E160.17506
G1 X62.563 Y45.921 E160.18692
G1 X62.242 Y45.322 E160.20716
G1 X61.848 Y39.453 E160.38235
G1 X61.776 Y38.174 E160.42051
G1 X61.306 Y32.490 E160.59037
G1 X61.240 Y31.635 E160.61591
G1 X61.279 Y30.930 E160.63694
G1 X61.245 Y29.839 E160.66945
G1 X59.389 Y23.290 E160.87219
G0 F10500 X60.241 Y23.825
;TYPE:SKIN
G1 F1920 X66.136 Y29.720 E161.12048
G0 F10500 X66.292 Y29.169
G1 F1920 X60.660 Y23.537 E161.35770
G0 F10500 X61.176 Y23.345
G1 F1920 X66.448 Y28.618 E161.57978
G0 F10500 X66.605 Y28.067
G1 F1920 X61.691 Y23.154 E161.78674
G0 F10500 X62.207 Y22.962
G1 F1920 X66.761 Y27.517 E161.97857
G0 F10500 X66.917 Y26.966
G1 F1920 X62.722 Y22.770 E162.15529
G0 F10500 X63.237 Y22.579
G1 F1920 X67.073 Y26.414 E162.31684
G0 F10500 X67.229 Y25.863
G1 F1920 X63.749 Y22.383 E162.46342
G0 F10500 X64.555 Y22.482
G1 F1920 X67.385 Y25.313 E162.58264
G0 F10500 X67.542 Y24.762
G1 F1920 X65.681 Y22.901 E162.66103
G0 F10500 X66.807 Y23.320
G1 F1920 X67.698 Y24.211 E162.69855
G0 F10500 X66.112 Y30.403
G1 F1920 X60.521 Y24.812 E162.93405
G0 F10500 X60.801 Y25.799
G1 F1920 X66.104 Y31.102 E163.15741
G0 F10500 X66.118 Y31.823
G1 F1920 X61.080 Y26.785 E163.36961
G0 F10500 X61.360 Y27.773
G1 F1920 X66.064 Y32.476 E163.56772
G0 F10500 X66.010 Y33.130
G1 F1920 X61.639 Y28.759 E163.75183
G0 F10500 X61.916 Y29.743
G1 F1920 X65.957 Y33.784 E163.92204
G0 F10500 X65.903 Y34.437
G1 F1920 X61.939 Y30.473 E164.08900
G0 F10500 X61.940 Y31.181
G1 F1920 X65.850 Y35.090 E164.25367
G0 F10500 X65.796 Y35.744
G1 F1920 X61.936 Y31.884 E164.41625
G0 F10500 X62.000 Y32.655
G1 F1920 X65.742 Y36.397 E164.57387
G0 F10500 X65.689 Y37.051
G1 F1920 X62.063 Y33.425 E164.72659
G0 F10500 X62.126 Y34.195
G1 F1920 X65.635 Y37.705 E164.87441
G0 F10500 X65.587 Y38.364
G1 F1920 X62.189 Y34.965 E165.01756
G0 F10500 X62.252 Y35.735
G1 F1920 X65.549 Y39.033 E165.15645
G0 F10500 X65.510 Y39.701
G1 F1920 X62.315 Y36.505 E165.29104
G0 F10500 X62.378 Y37.275
G1 F1920 X65.466 Y40.363 E165.42111
G0 F10500 X65.421 Y41.026
G1 F1920 X62.441 Y38.045 E165.54665
G0 F10500 X62.486 Y38.798
G1 F1920 X65.376 Y41.688 E165.66838
G0 F10500 X65.332 Y42.351
G1 F1920 X62.530 Y39.549 E165.78640
G0 F10500 X62.581 Y40.307
G1 F1920 X65.288 Y43.014 E165.90042
G0 F10500 X65.244 Y43.677
G1 F1920 X62.631 Y41.064 E166.01048
G0 F10500 X62.682 Y41.822
G1 F1920 X65.199 Y44.339 E166.11649
G0 F10500 X65.154 Y45.002
G1 F1920 X62.733 Y42.580 E166.21849
G0 F10500 X62.784 Y43.338
G1 F1920 X64.947 Y45.501 E166.30959
G0 F10500 X64.227 Y45.489
G1 F1920 X62.834 Y44.096 E166.36826
G0 F10500 X62.885 Y44.853
G1 F1920 X63.551 Y45.519 E166.39632
G1 F600 E164.89632
G1 Z1.285
G0 F10500 X70.623 Y27.238
;TYPE:WALL-INNER
G1 Z1.185
G1 F600 E166.39632
G1 F1440 X70.675 Y26.035 E166.43218
G1 X70.934 Y19.421 E166.62932
G1 X71.744 Y18.326 E166.66988
G1 X72.621 Y16.294 E166.73580
G1 X73.256 Y16.929 E166.76255
G1 X74.811 Y15.306 E166.82949
G1 X74.957 Y15.317 E166.83385
G1 X75.591 Y17.274 E166.89512
G1 X76.539 Y16.978 E166.92470
G1 X76.835 Y21.474 E167.05889
G1 X76.010 Y23.717 E167.13007
G1 X73.301 Y27.360 E167.26529
G1 X72.674 Y27.337 E167.28397
G1 X70.623 Y27.238 E167.34513
G0 F10500 X70.176 Y26.014
;TYPE:WALL-OUTER
G1 F1320 X70.441 Y19.247 E167.54683
G1 X71.308 Y18.075 E167.59025
G1 X72.454 Y15.420 E167.67637
G1 X73.249 Y16.214 E167.70984
G1 X74.612 Y14.791 E167.76852
G1 X75.328 Y14.841 E167.78990
G1 X75.914 Y16.649 E167.84651
G1 X76.967 Y16.321 E167.87936
G1 X77.036 Y16.921 E167.89734
G1 X77.341 Y21.547 E168.03542
G1 X76.455 Y23.957 E168.11190
G1 X73.546 Y27.869 E168.25709
G1 X72.650 Y27.836 E168.28379
G1 X70.102 Y27.713 E168.35977
G1 X70.176 Y26.014 E168.41042
G0 F10500 X70.849 Y25.948
;TYPE:SKIN
G1 F1920 X72.028 Y27.127 E168.46008
G0 F10500 X72.769 Y27.160
G1 F1920 X70.876 Y25.268 E168.53979
G0 F10500 X70.903 Y24.588
G1 F1920 X73.335 Y27.019 E168.64221
G0 F10500 X73.637 Y26.614
G1 F1920 X70.930 Y23.907 E168.75623
G0 F10500 X70.957 Y23.227
G1 F1920 X73.938 Y26.208 E168.88179
G0 F10500 X74.240 Y25.803
G1 F1920 X70.984 Y22.547 E169.01893
G0 F10500 X71.011 Y21.867
G1 F1920 X74.541 Y25.397 E169.16761
G0 F10500 X74.843 Y24.992
G1 F1920 X71.038 Y21.187 E169.32788
G0 F10500 X71.065 Y20.507
G1 F1920 X75.145 Y24.587 E169.49973
G0 F10500 X75.446 Y24.181
G1 F1920 X71.092 Y19.827 E169.68312
G0 F10500 X71.254 Y19.282
G1 F1920 X75.748 Y23.775 E169.87239
G0 F10500 X75.977 Y23.298
G1 F1920 X71.554 Y18.874 E170.05871
G0 F10500 X71.854 Y18.468
G1 F1920 X76.167 Y22.780 E170.24035
G0 F10500 X76.357 Y22.263
G1 F1920 X72.080 Y17.986 E170.42050
G0 F10500 X72.293 Y17.492
G1 F1920 X76.547 Y21.747 E170.59970
G0 F10500 X76.636 Y21.129
G1 F1920 X72.506 Y16.998 E170.77367
G0 F10500 X73.324 Y17.109
G1 F1920 X76.587 Y20.372 E170.91111
G0 F10500 X70.822 Y26.628
G1 F1920 X71.287 Y27.093 E170.93070
G0 F10500 X76.537 Y19.615
G1 F1920 X73.670 Y16.748 E171.05145
G0 F10500 X74.016 Y16.387
G1 F1920 X76.487 Y18.858 E171.15553
G0 F10500 X76.437 Y18.101
G1 F1920 X76.014 Y17.324 E171.18467
G1 X76.388 Y17.344 E171.19583
G0 F10500 X75.308 Y16.972
G1 F1920 X74.362 Y16.026 E171.23567
G0 F10500 X74.709 Y15.665
G1 F1920 X74.970 Y15.927 E171.24669
G1 F600 E169.74669
G1 Z1.285
G0 F10500 X83.823 Y19.169
;TYPE:WALL-INNER
G1 Z1.185
G1 F600 E171.24669
G1 F1440 X84.118 Y14.677 E171.38076
G1 X85.066 Y14.970 E171.41032
G1 X85.702 Y13.013 E171.47160
G1 X85.847 Y13.003 E171.47593
G1 X87.402 Y14.625 E171.54286
G1 X88.037 Y13.990 E171.56960
G1 X88.914 Y16.022 E171.63552
G1 X89.723 Y17.117 E171.67607
G1 X89.984 Y23.732 E171.87324
G1 X90.035 Y24.934 E171.90907
G1 X87.983 Y25.032 E171.97025
G1 X87.356 Y25.057 E171.98894
G1 X84.647 Y21.413 E172.12418
G1 X83.823 Y19.169 E172.19537
G0 F10500 X83.318 Y19.242
;TYPE:WALL-OUTER
G1 F1320 X83.620 Y14.629 E172.33306
G1 X83.691 Y14.017 E172.35141
G1 X84.743 Y14.345 E172.38423
G1 X85.331 Y12.537 E172.44085
G1 X86.046 Y12.488 E172.46220
G1 X87.409 Y13.910 E172.52086
G1 X88.204 Y13.116 E172.55433
G1 X89.351 Y15.771 E172.64047
G1 X90.216 Y16.943 E172.68385
G1 X90.556 Y25.410 E172.93623
G1 X88.007 Y25.531 E173.01223
G1 X87.112 Y25.566 E173.03891
G1 X84.202 Y21.652 E173.18417
G1 X83.318 Y19.242 E173.26062
G0 F10500 X84.089 Y19.389
;TYPE:SKIN
G1 F1920 X89.485 Y24.784 E173.48788
G0 F10500 X89.840 Y24.432
G1 F1920 X84.032 Y18.625 E173.73250
G0 F10500 X84.076 Y17.961
G1 F1920 X89.810 Y23.695 E173.97401
G0 F10500 X89.780 Y22.959
G1 F1920 X84.119 Y17.297 E174.21247
G0 F10500 X84.163 Y16.634
G1 F1920 X89.751 Y22.222 E174.44784
G0 F10500 X89.721 Y21.486
G1 F1920 X84.206 Y15.970 E174.68015
G0 F10500 X84.250 Y15.307
G1 F1920 X89.692 Y20.749 E174.90937
G0 F10500 X89.663 Y20.013
G1 F1920 X84.685 Y15.035 E175.11905
G0 F10500 X85.268 Y14.911
G1 F1920 X89.633 Y19.276 E175.30290
G0 F10500 X89.603 Y18.539
G1 F1920 X85.441 Y14.377 E175.47820
G0 F10500 X85.615 Y13.843
G1 F1920 X89.574 Y17.803 E175.64498
G0 F10500 X89.247 Y16.769
G1 F1920 X85.788 Y13.309 E175.79069
G0 F10500 X87.729 Y14.543
G1 F1920 X88.355 Y15.169 E175.81706
G0 F10500 X84.499 Y20.506
G1 F1920 X88.809 Y24.815 E175.99858
G0 F10500 X88.133 Y24.847
G1 F1920 X85.342 Y22.056 E176.11613
G1 F600 E174.61613
G1 Z1.285
G0 F10500 X92.603 Y21.295
;TYPE:WALL-INNER
G1 Z1.185
G1 F600 E176.11613
G1 F1440 X96.103 Y19.992 E176.22736
G1 X96.633 Y19.780 E176.24437
G1 X97.163 Y19.991 E176.26136
G1 X100.662 Y21.294 E176.37256
G1 X98.914 Y27.460 E176.56344
G1 X98.878 Y28.633 E176.59839
G1 X98.917 Y29.322 E176.61895
G1 X98.854 Y30.151 E176.64371
G1 X98.382 Y35.836 E176.81361
G1 X98.312 Y37.113 E176.85170
G1 X97.923 Y42.878 E177.02379
G1 X97.648 Y43.392 E177.04115
G1 X97.623 Y43.444 E177.04287
G1 X96.765 Y43.355 E177.06856
G1 X96.629 Y43.383 E177.07270
G1 X96.496 Y43.357 E177.07673
G1 X95.641 Y43.444 E177.10233
G1 X95.340 Y42.877 E177.12145
G1 X94.955 Y37.121 E177.29327
G1 X94.882 Y35.835 E177.33163
G1 X94.411 Y30.149 E177.50156
G1 X94.348 Y29.321 E177.52629
G1 X94.387 Y28.632 E177.54684
G1 X94.350 Y27.458 E177.58183
G1 X92.603 Y21.295 E177.77261
G0 F10500 X91.996 Y20.986
;TYPE:WALL-OUTER
G1 F1320 X95.923 Y19.525 E177.89740
G1 X96.633 Y19.242 E177.92017
G1 X97.342 Y19.524 E177.94289
G1 X101.269 Y20.986 E178.06770
G1 X99.412 Y27.537 E178.27049
G1 X99.379 Y28.626 E178.30294
G1 X99.418 Y29.332 E178.32400
G1 X99.353 Y30.187 E178.34954
G1 X98.881 Y35.871 E178.51941
G1 X98.810 Y37.150 E178.55756
G1 X98.415 Y43.019 E178.73276
G1 X98.095 Y43.617 E178.75296
G1 X97.924 Y43.978 E178.76486
G1 X96.789 Y43.860 E178.79884
G1 X96.630 Y43.892 E178.80367
G1 X96.473 Y43.862 E178.80843
G1 X95.339 Y43.977 E178.84238
G1 X95.169 Y43.617 E178.85424
G1 X94.848 Y43.018 E178.87448
G1 X94.455 Y37.149 E179.04967
G1 X94.383 Y35.870 E179.08782
G1 X93.913 Y30.186 E179.25769
G1 X93.847 Y29.331 E179.28323
G1 X93.886 Y28.626 E179.30426
G1 X93.852 Y27.535 E179.33677
G1 X91.996 Y20.986 E179.53950
G0 F10500 X93.076 Y21.305
;TYPE:SKIN
G1 F1920 X98.842 Y27.070 E179.78234
G0 F10500 X98.998 Y26.520
G1 F1920 X93.591 Y21.113 E180.01009
G0 F10500 X94.107 Y20.921
G1 F1920 X99.154 Y25.968 E180.22267
G0 F10500 X99.310 Y25.417
G1 F1920 X94.622 Y20.730 E180.42010
G0 F10500 X95.138 Y20.538
G1 F1920 X99.466 Y24.866 E180.60240
G0 F10500 X99.622 Y24.315
G1 F1920 X95.653 Y20.346 E180.76957
G0 F10500 X96.167 Y20.153
G1 F1920 X99.778 Y23.764 E180.92167
G0 F10500 X99.934 Y23.213
G1 F1920 X96.725 Y20.004 E181.05683
G0 F10500 X97.869 Y20.441
G1 F1920 X100.090 Y22.662 E181.15038
G0 F10500 X100.247 Y22.111
G1 F1920 X98.995 Y20.860 E181.20310
G0 F10500 X93.232 Y22.875
G1 F1920 X98.711 Y28.354 E181.43387
G0 F10500 X98.732 Y27.668
G1 F1920 X92.953 Y21.889 E181.67728
G0 F10500 X93.512 Y23.862
G1 F1920 X98.726 Y29.076 E181.89690
G0 F10500 X98.705 Y29.762
G1 F1920 X93.792 Y24.849 E182.10383
G0 F10500 X94.071 Y25.835
G1 F1920 X98.651 Y30.415 E182.29674
G0 F10500 X98.597 Y31.068
G1 F1920 X94.351 Y26.822 E182.47558
G0 F10500 X94.531 Y27.710
G1 F1920 X98.544 Y31.722 E182.64459
G0 F10500 X98.490 Y32.376
G1 F1920 X94.555 Y28.440 E182.81035
G0 F10500 X94.533 Y29.126
G1 F1920 X98.437 Y33.029 E182.97477
G0 F10500 X98.383 Y33.683
G1 F1920 X94.567 Y29.867 E183.13550
G0 F10500 X94.630 Y30.637
G1 F1920 X98.329 Y34.336 E183.29130
G0 F10500 X98.275 Y34.989
G1 F1920 X94.693 Y31.407 E183.44218
G0 F10500 X94.756 Y32.177
G1 F1920 X98.222 Y35.643 E183.58816
G0 F10500 X98.181 Y36.309
G1 F1920 X94.819 Y32.947 E183.72977
G0 F10500 X94.882 Y33.717
G1 F1920 X98.143 Y36.978 E183.86713
G0 F10500 X98.101 Y37.643
G1 F1920 X94.945 Y34.487 E184.00006
G0 F10500 X95.008 Y35.257
G1 F1920 X98.056 Y38.306 E184.12846
G0 F10500 X98.012 Y38.968
G1 F1920 X95.066 Y36.022 E184.25255
G0 F10500 X95.108 Y36.772
G1 F1920 X97.967 Y39.631 E184.37297
G0 F10500 X97.922 Y40.293
G1 F1920 X95.156 Y37.526 E184.48949
G0 F10500 X95.206 Y38.284
G1 F1920 X97.878 Y40.956 E184.60204
G0 F10500 X97.833 Y41.618
G1 F1920 X95.257 Y39.042 E184.71054
G0 F10500 X95.308 Y39.800
G1 F1920 X97.789 Y42.281 E184.81504
G0 F10500 X97.709 Y42.908
G1 F1920 X95.358 Y40.557 E184.91406
G0 F10500 X95.409 Y41.315
G1 F1920 X97.331 Y43.237 E184.99502
G0 F10500 X96.581 Y43.195
G1 F1920 X95.459 Y42.072 E185.04230
G0 F10500 X95.514 Y42.835
G1 F1920 X95.919 Y43.239 E185.05933
G0 F10500 X98.966 Y27.468
G0 X100.402 Y21.560
G1 F1920 X100.122 Y21.279 E185.07115
G1 F600 E183.57115
G1 Z1.285
G0 F10500 X103.282 Y23.731
;TYPE:WALL-INNER
G1 Z1.185
G1 F600 E185.07115
G1 F1440 X103.540 Y17.117 E185.26829
G1 X104.351 Y16.022 E185.30887
G1 X105.228 Y13.990 E185.37479
G1 X105.863 Y14.625 E185.40153
G1 X107.418 Y13.002 E185.46848
G1 X107.564 Y13.013 E185.47284
G1 X108.198 Y14.970 E185.53411
G1 X109.145 Y14.674 E185.56366
G1 X109.442 Y19.170 E185.69785
G1 X108.618 Y21.411 E185.76897
G1 X105.907 Y25.056 E185.90426
G1 X105.280 Y25.033 E185.92295
G1 X103.230 Y24.934 E185.98408
G1 X103.282 Y23.731 E186.01994
G0 F10500 X102.783 Y23.710
;TYPE:WALL-OUTER
G1 F1320 X103.047 Y16.943 E186.22164
G1 X103.915 Y15.771 E186.26507
G1 X105.061 Y13.116 E186.35120
G1 X105.856 Y13.910 E186.38466
G1 X107.219 Y12.487 E186.44335
G1 X107.935 Y12.537 E186.46473
G1 X108.521 Y14.345 E186.52133
G1 X109.573 Y14.017 E186.55415
G1 X109.642 Y14.618 E186.57217
G1 X109.948 Y19.243 E186.71022
G1 X109.062 Y21.653 E186.78670
G1 X106.152 Y25.565 E186.93191
G1 X105.256 Y25.532 E186.95861
G1 X102.709 Y25.409 E187.03456
G1 X102.783 Y23.710 E187.08521
G0 F10500 X103.446 Y23.896
;TYPE:SKIN
G1 F1920 X104.360 Y24.810 E187.12371
G0 F10500 X105.100 Y24.844
G1 F1920 X103.473 Y23.216 E187.19226
G0 F10500 X103.499 Y22.536
G1 F1920 X105.829 Y24.866 E187.29040
G0 F10500 X106.131 Y24.460
G1 F1920 X103.526 Y21.855 E187.40012
G0 F10500 X103.553 Y21.175
G1 F1920 X106.433 Y24.055 E187.52143
G0 F10500 X106.734 Y23.649
G1 F1920 X103.580 Y20.495 E187.65427
G0 F10500 X103.607 Y19.815
G1 F1920 X107.036 Y23.244 E187.79870
G0 F10500 X107.338 Y22.838
G1 F1920 X103.634 Y19.135 E187.95469
G0 F10500 X103.661 Y18.454
G1 F1920 X107.640 Y22.433 E188.12229
G0 F10500 X107.941 Y22.027
G1 F1920 X103.688 Y17.774 E188.30143
G0 F10500 X103.748 Y17.127
G1 F1920 X108.243 Y21.622 E188.49076
G0 F10500 X108.514 Y21.187
G1 F1920 X104.049 Y16.721 E188.67884
G0 F10500 X104.349 Y16.315
G1 F1920 X108.704 Y20.669 E188.86225
G0 F10500 X108.894 Y20.152
G1 F1920 X104.607 Y15.865 E189.04282
G0 F10500 X104.820 Y15.371
G1 F1920 X109.083 Y19.634 E189.22238
G0 F10500 X109.262 Y19.106
G1 F1920 X105.034 Y14.878 E189.40046
G0 F10500 X105.247 Y14.384
G1 F1920 X109.211 Y18.348 E189.56743
G0 F10500 X109.162 Y17.592
G1 F1920 X106.148 Y14.578 E189.69438
G0 F10500 X106.494 Y14.217
G1 F1920 X109.112 Y16.834 E189.80463
G0 F10500 X109.062 Y16.078
G1 F1920 X108.151 Y15.167 E189.84300
G0 F10500 X108.040 Y15.056
G1 F1920 X106.841 Y13.856 E189.89352
G0 F10500 X107.186 Y13.495
G1 F1920 X107.703 Y14.012 E189.91530
G0 F10500 X108.690 Y14.999
G1 F1920 X109.012 Y15.320 E189.92884
G0 F10500 X103.419 Y24.576
G1 F1920 X103.619 Y24.777 E189.93728
;LAYER:3
G1 F600 E188.43728
G1 Z1.285
G0 F10500 X22.599 Y25.467 Z1.565
;TYPE:WALL-INNER
G1 Z1.565
G1 F600 E189.93728
G1 F1740 X22.681 Y27.414 E189.99532
G1 X21.105 Y27.489 E190.04232
G1 X20.085 Y27.529 E190.07272
G1 X17.925 Y24.624 E190.18054
G1 X16.753 Y21.429 E190.28189
G1 X17.016 Y17.428 E190.40131
G1 X17.057 Y17.079 E190.41178
G1 X17.786 Y17.306 E190.43452
G1 X18.311 Y15.690 E190.48513
G1 X18.839 Y15.654 E190.50089
G1 X20.136 Y17.008 E190.55673
G1 X20.595 Y16.550 E190.57604
G1 X21.214 Y17.983 E190.62253
G1 X22.365 Y19.541 E190.68023
G1 X22.599 Y25.467 E190.85686
G1 F600 E189.35686
G1 Z1.665
G0 F10500 X21.129 Y27.988
;TYPE:WALL-OUTER
G1 Z1.565
G1 F600 E190.85686
G1 F1500 X19.841 Y28.038 E190.89525
G1 X17.481 Y24.864 E191.01305
G1 X16.248 Y21.501 E191.11973
G1 X16.518 Y17.382 E191.24267
G1 X16.629 Y16.422 E191.27146
G1 X17.463 Y16.682 E191.29747
G1 X17.941 Y15.214 E191.34346
G1 X19.038 Y15.139 E191.37620
G1 X20.144 Y16.293 E191.42381
G1 X20.762 Y15.676 E191.44982
G1 X21.650 Y17.732 E191.51652
G1 X22.858 Y19.367 E191.57707
G1 X23.202 Y27.890 E191.83112
G1 X21.129 Y27.988 E191.89293
G0 F10500 X21.128 Y27.308
;TYPE:SKIN
G1 F2400 X21.706 Y27.082 E191.91052
G1 X22.303 Y26.839 E191.92822
G1 X22.383 Y26.406 E191.93483
G1 X22.355 Y25.727 E191.94143
G1 X22.327 Y25.047 E191.94804
G1 X22.300 Y24.368 E191.95464
G1 X22.272 Y23.688 E191.96129
G1 X22.245 Y23.009 E191.96792
G1 X22.217 Y22.329 E191.97461
G1 X22.189 Y21.650 E191.98125
G1 X22.162 Y20.970 E191.98798
G1 X22.135 Y20.290 E191.99471
G1 X22.033 Y19.685 E192.00143
G1 X21.858 Y19.152 E192.00748
G1 X21.414 Y18.890 E192.01356
G1 X21.258 Y18.339 E192.01960
G1 X20.812 Y18.077 E192.02573
G1 X20.774 Y17.409 E192.03490
G1 X20.361 Y17.468 E192.04733
G0 F10500 X17.655 Y18.053
G1 F2400 X17.345 Y18.716 E192.07013
G1 X17.295 Y19.473 E192.09173
G1 X17.246 Y20.229 E192.11330
G1 X17.199 Y20.983 E192.13490
G1 X17.079 Y21.810 E192.15381
G1 X17.720 Y21.876 E192.17281
G1 X17.459 Y22.845 E192.19182
G1 X18.100 Y22.910 E192.21082
G1 X17.838 Y23.880 E192.22979
G1 X18.480 Y23.945 E192.24882
G1 X18.299 Y24.833 E192.26674
G1 X18.860 Y24.979 E192.28000
G1 X18.902 Y25.644 E192.28853
G1 X19.394 Y25.859 E192.29656
G1 X19.505 Y26.455 E192.30454
G1 X19.997 Y26.671 E192.31254
G1 X20.173 Y27.202 E192.32051
G1 X20.804 Y26.925 E192.34103
G0 F10500 X17.163 Y17.838
G1 F2400 X17.577 Y17.423 E192.35849
G1 F600 E190.85849
G1 Z1.665
G0 F10500 X25.247 Y23.414
;TYPE:WALL-INNER
G1 Z1.565
G1 F600 E192.35849
G1 F1740 X28.527 Y22.193 E192.46273
G1 X29.361 Y21.859 E192.48949
G1 X30.196 Y22.192 E192.51626
G1 X33.476 Y23.413 E192.62050
G1 X31.829 Y29.221 E192.80030
G1 X31.782 Y30.794 E192.84717
G1 X31.835 Y31.752 E192.87575
G1 X31.747 Y32.917 E192.91055
G1 X31.310 Y38.179 E193.06780
G1 X31.211 Y39.952 E193.12069
G1 X30.865 Y45.102 E193.27442
G1 X30.459 Y45.859 E193.30001
G1 X30.340 Y46.109 E193.30825
G1 X29.559 Y46.028 E193.33164
G1 X29.359 Y46.069 E193.33772
G1 X29.161 Y46.030 E193.34373
G1 X28.381 Y46.109 E193.36708
G1 X27.856 Y45.101 E193.40093
G1 X27.513 Y39.951 E193.55465
G1 X27.412 Y38.178 E193.60755
G1 X26.976 Y32.915 E193.76483
G1 X26.887 Y31.752 E193.79957
G1 X26.941 Y30.793 E193.82818
G1 X26.892 Y29.219 E193.87508
G1 X25.247 Y23.414 E194.05478
G0 F10500 X24.640 Y23.105
;TYPE:WALL-OUTER
G1 F1500 X28.347 Y21.726 E194.17258
G1 X29.362 Y21.321 E194.20513
G1 X30.376 Y21.725 E194.23764
G1 X34.083 Y23.105 E194.35545
G1 X32.327 Y29.298 E194.54717
G1 X32.283 Y30.787 E194.59153
G1 X32.336 Y31.762 E194.62061
G1 X32.246 Y32.953 E194.65619
G1 X31.809 Y38.214 E194.81342
G1 X31.710 Y39.980 E194.86610
G1 X31.357 Y45.243 E195.02320
G1 X30.906 Y46.084 E195.05162
G1 X30.641 Y46.643 E195.07005
G1 X29.583 Y46.533 E195.10173
G1 X29.360 Y46.578 E195.10850
G1 X29.138 Y46.535 E195.11524
G1 X28.080 Y46.642 E195.14691
G1 X27.816 Y46.084 E195.16529
G1 X27.364 Y45.242 E195.19376
G1 X27.013 Y39.979 E195.35086
G1 X26.913 Y38.213 E195.40354
G1 X26.478 Y32.952 E195.56076
G1 X26.386 Y31.762 E195.59631
G1 X26.440 Y30.787 E195.62539
G1 X26.394 Y29.296 E195.66982
G1 X24.640 Y23.105 E195.86147
G0 F10500 X25.496 Y23.647
;TYPE:SKIN
G1 F2400 X25.721 Y23.422 E195.87094
G0 F10500 X25.651 Y24.199
G1 F2400 X26.846 Y23.004 E195.92128
G0 F10500 X27.598 Y23.666
G1 F2400 X29.124 Y22.140 E195.98555
G0 F10500 X29.764 Y22.207
G1 F2400 X28.726 Y23.245 E196.02927
G0 F10500 X29.584 Y23.094
G1 F2400 X30.529 Y22.503 E196.05815
G1 X30.356 Y23.382 E196.08713
G1 X31.560 Y22.886 E196.11606
G1 X31.387 Y23.766 E196.14502
G1 X32.591 Y23.269 E196.17396
G1 X32.418 Y24.149 E196.20297
G1 X33.206 Y23.715 E196.22976
G0 F10500 X27.971 Y22.586
G1 F2400 X26.470 Y24.087 E196.29298
G0 F10500 X27.316 Y29.605
G1 F2400 X27.278 Y29.996 E196.30267
G1 X27.368 Y30.614 E196.31796
G1 X27.407 Y31.281 E196.34053
G1 X27.106 Y32.289 E196.36760
G1 X27.781 Y32.322 E196.39376
G1 X27.213 Y33.597 E196.41987
G1 X27.889 Y33.628 E196.44607
G1 X27.320 Y34.904 E196.47229
G1 X27.997 Y34.935 E196.49853
G1 X27.426 Y36.212 E196.52477
G1 X28.104 Y36.241 E196.55105
G1 X27.533 Y37.520 E196.57733
G1 X28.212 Y37.547 E196.60364
G1 X27.625 Y38.842 E196.63023
G1 X28.311 Y38.863 E196.65738
G1 X27.703 Y40.178 E196.68482
G1 X28.377 Y39.858 E196.70704
G0 F10500 X30.336 Y40.020
G1 F2400 X31.072 Y39.284 E196.73804
G0 F10500 X30.387 Y39.262
G1 F2400 X31.114 Y38.535 E196.76866
G0 F10500 X30.439 Y38.503
G1 F2400 X31.167 Y37.775 E196.79933
G0 F10500 X30.501 Y37.734
G1 F2400 X31.230 Y37.005 E196.83003
G0 F10500 X30.564 Y36.964
G1 F2400 X31.293 Y36.234 E196.86076
G0 F10500 X30.627 Y36.193
G1 F2400 X31.355 Y35.465 E196.89142
G0 F10500 X30.690 Y35.423
G1 F2400 X31.418 Y34.695 E196.92209
G0 F10500 X30.752 Y34.654
G1 F2400 X31.481 Y33.925 E196.95279
G0 F10500 X30.815 Y33.884
G1 F2400 X31.544 Y33.155 E196.98350
G0 F10500 X30.878 Y33.114
G1 F2400 X31.607 Y32.385 E197.01420
G0 F10500 X30.941 Y32.344
G1 F2400 X31.652 Y31.633 E197.04415
G0 F10500 X31.004 Y31.574
G1 F2400 X31.340 Y30.884 E197.06980
G1 X31.484 Y30.033 E197.09319
G1 X31.644 Y29.520 E197.10919
G0 F10500 X31.029 Y40.034
G1 F2400 X30.284 Y40.779 E197.14057
G0 F10500 X30.979 Y40.792
G1 F2400 X30.233 Y41.537 E197.17197
G0 F10500 X30.928 Y41.549
G1 F2400 X30.182 Y42.295 E197.20340
G0 F10500 X30.877 Y42.307
G1 F2400 X30.131 Y43.054 E197.23484
G0 F10500 X30.827 Y43.065
G1 F2400 X30.080 Y43.812 E197.26630
G0 F10500 X30.776 Y43.823
G1 F2400 X30.028 Y44.571 E197.29781
G0 F10500 X29.706 Y44.893
G1 F2400 X28.699 Y45.900 E197.34022
G0 F10500 X28.306 Y45.586
G1 F2400 X28.841 Y44.696 E197.36930
G1 X28.027 Y44.804 E197.39546
G1 X28.620 Y43.504 E197.42287
G1 X27.923 Y43.493 E197.45032
G1 X28.531 Y42.178 E197.47776
G1 X27.835 Y42.167 E197.50521
G1 X28.443 Y40.852 E197.53265
G1 X27.769 Y41.173 E197.55488
G0 F10500 X30.725 Y44.581
G1 F2400 X29.432 Y45.874 E197.60935
G0 F10500 X30.105 Y45.908
G1 F2400 X30.382 Y45.631 E197.62101
G1 F600 E196.12101
G1 Z1.665
G0 F10500 X36.041 Y27.414
;TYPE:WALL-INNER
G1 Z1.565
G1 F600 E197.62101
G1 F1740 X36.125 Y25.466 E197.67909
G1 X36.357 Y19.540 E197.85572
G1 X37.509 Y17.983 E197.91340
G1 X38.128 Y16.550 E197.95989
G1 X38.587 Y17.008 E197.97921
G1 X39.885 Y15.654 E198.03507
G1 X40.412 Y15.691 E198.05080
G1 X40.937 Y17.307 E198.10141
G1 X41.666 Y17.079 E198.12416
G1 X41.705 Y17.425 E198.13453
G1 X41.970 Y21.430 E198.25407
G1 X40.797 Y24.624 E198.35541
G1 X38.637 Y27.528 E198.46321
G1 X37.617 Y27.490 E198.49361
G1 X36.041 Y27.414 E198.54060
G0 F10500 X37.595 Y27.641
G0 X37.593 Y27.989
;TYPE:WALL-OUTER
G1 F1500 X35.520 Y27.889 E198.60241
G1 X35.864 Y19.366 E198.85646
G1 X37.073 Y17.732 E198.91700
G1 X37.961 Y15.676 E198.98370
G1 X38.579 Y16.293 E199.00971
G1 X39.686 Y15.138 E199.05736
G1 X40.783 Y15.215 E199.09011
G1 X41.260 Y16.682 E199.13606
G1 X42.094 Y16.422 E199.16208
G1 X42.203 Y17.371 E199.19053
G1 X42.476 Y21.502 E199.31383
G1 X41.241 Y24.865 E199.42053
G1 X38.882 Y28.037 E199.53827
G1 X37.593 Y27.989 E199.57668
G0 F10500 X37.400 Y27.299
;TYPE:SKIN
G1 F2400 X37.928 Y27.124 E199.59262
G1 X38.454 Y26.952 E199.60910
G0 F10500 X38.683 Y26.723
G1 F2400 X39.984 Y25.423 E199.66388
G0 F10500 X39.944 Y24.755
G1 F2400 X40.919 Y23.780 E199.70495
G0 F10500 X40.355 Y23.637
G1 F2400 X41.329 Y22.663 E199.74597
G0 F10500 X40.765 Y22.520
G1 F2400 X41.739 Y21.546 E199.78700
G0 F10500 X41.176 Y21.402
G1 F2400 X41.507 Y20.717 E199.81129
G1 X41.463 Y20.054 E199.83017
G1 X41.419 Y19.391 E199.84905
G1 X41.375 Y18.728 E199.86797
G1 X41.318 Y18.078 E199.88689
G1 X41.169 Y17.520 E199.90695
G1 X40.706 Y17.630 E199.92112
G0 F10500 X38.419 Y17.087
G1 F2400 X37.832 Y17.675 E199.94587
G0 F10500 X37.258 Y18.956
G1 F2400 X36.525 Y19.689 E199.97674
G0 F10500 X36.671 Y20.250
G1 F2400 X36.568 Y20.706 E199.98410
G1 X36.538 Y21.443 E199.99139
G1 X36.508 Y22.180 E199.99868
G1 X36.479 Y22.917 E200.00593
G1 X36.448 Y23.654 E200.01323
G1 X36.419 Y24.391 E200.02043
G1 X36.389 Y25.128 E200.02759
G1 X36.359 Y25.865 E200.03475
G1 X36.344 Y26.587 E200.04190
G1 X36.476 Y27.163 E200.05027
G1 X37.104 Y26.888 E200.07069
G1 F600 E198.57069
G1 Z1.665
G0 F10500 X51.417 Y21.362
;TYPE:WALL-INNER
G1 Z1.565
G1 F600 E200.07069
G1 F1740 X51.680 Y17.361 E200.19011
G1 X51.721 Y17.012 E200.20058
G1 X52.450 Y17.239 E200.22332
G1 X52.975 Y15.623 E200.27392
G1 X53.503 Y15.587 E200.28969
G1 X54.800 Y16.941 E200.34553
G1 X55.260 Y16.482 E200.36488
G1 X55.879 Y17.916 E200.41140
G1 X57.029 Y19.474 E200.46908
G1 X57.263 Y25.400 E200.64571
G1 X57.345 Y27.347 E200.70375
G1 X55.769 Y27.422 E200.75074
G1 X54.749 Y27.462 E200.78114
G1 X52.589 Y24.557 E200.88896
G1 X51.417 Y21.362 E200.99032
G0 F10500 X50.912 Y21.434
;TYPE:WALL-OUTER
G1 F1500 X51.182 Y17.315 E201.11326
G1 X51.293 Y16.355 E201.14204
G1 X52.127 Y16.615 E201.16806
G1 X52.605 Y15.147 E201.21404
G1 X53.702 Y15.072 E201.24679
G1 X54.808 Y16.226 E201.29440
G1 X55.427 Y15.609 E201.32043
G1 X56.315 Y17.665 E201.38713
G1 X57.522 Y19.300 E201.44766
G1 X57.866 Y27.823 E201.70171
G1 X55.793 Y27.921 E201.76352
G1 X54.505 Y27.971 E201.80191
G1 X52.145 Y24.797 E201.91971
G1 X50.912 Y21.434 E202.02639
G0 F10500 X51.662 Y21.522
;TYPE:SKIN
G1 F2400 X51.869 Y20.962 E202.04534
G1 X51.905 Y20.218 E202.06691
G1 X51.955 Y19.462 E202.08848
G1 X52.005 Y18.704 E202.11011
G1 X52.067 Y17.935 E202.13281
G1 X52.280 Y17.369 E202.15082
G0 F10500 X55.047 Y17.430
G1 F2400 X55.454 Y17.376 E202.16347
G1 X55.498 Y18.040 E202.17243
G1 X55.944 Y18.300 E202.17858
G1 X56.099 Y18.853 E202.18470
G1 X56.545 Y19.114 E202.19082
G1 X56.708 Y19.658 E202.19691
G1 X56.799 Y20.274 E202.20374
G1 X56.828 Y20.953 E202.21046
G1 X56.855 Y21.632 E202.21718
G1 X56.882 Y22.312 E202.22391
G1 X56.910 Y22.992 E202.23060
G1 X56.938 Y23.671 E202.23724
G1 X56.965 Y24.351 E202.24388
G1 X56.993 Y25.030 E202.25048
G1 X57.020 Y25.710 E202.25709
G1 X57.048 Y26.390 E202.26370
G1 X56.424 Y27.013 E202.28702
G1 X55.683 Y27.047 E202.30460
G1 X54.969 Y27.054 E202.32208
G1 X54.492 Y26.824 E202.33013
G1 X54.381 Y26.228 E202.33811
G1 X53.889 Y26.012 E202.34608
G1 X53.780 Y25.414 E202.35412
G1 X53.286 Y25.201 E202.36232
G1 X53.347 Y24.433 E202.37522
G1 X52.721 Y24.352 E202.39285
G1 X52.967 Y23.399 E202.41185
G1 X52.326 Y23.333 E202.43081
G1 X52.587 Y22.364 E202.44982
G1 X51.946 Y22.299 E202.46881
G1 X52.303 Y21.589 E202.49248
G1 F600 E200.99248
G1 Z1.665
G0 F10500 X59.911 Y23.346
;TYPE:WALL-INNER
G1 Z1.565
G1 F600 E202.49248
G1 F1740 X63.192 Y22.126 E202.59674
G1 X64.026 Y21.792 E202.62350
G1 X64.861 Y22.125 E202.65027
G1 X68.140 Y23.346 E202.75448
G1 X66.494 Y29.154 E202.93427
G1 X66.446 Y30.727 E202.98115
G1 X66.500 Y31.686 E203.00975
G1 X66.411 Y32.850 E203.04452
G1 X65.974 Y38.112 E203.20178
G1 X65.875 Y39.885 E203.25467
G1 X65.530 Y45.035 E203.40840
G1 X65.124 Y45.792 E203.43398
G1 X65.005 Y46.042 E203.44223
G1 X64.224 Y45.961 E203.46561
G1 X64.024 Y46.002 E203.47169
G1 X63.826 Y45.963 E203.47771
G1 X63.046 Y46.042 E203.50106
G1 X62.521 Y45.034 E203.53490
G1 X62.177 Y39.884 E203.68863
G1 X62.076 Y38.111 E203.74152
G1 X61.640 Y32.849 E203.89878
G1 X61.552 Y31.685 E203.93355
G1 X61.605 Y30.726 E203.96215
G1 X61.557 Y29.153 E204.00902
G1 X59.911 Y23.346 E204.18879
G0 F10500 X59.304 Y23.038
;TYPE:WALL-OUTER
G1 F1500 X63.012 Y21.659 E204.30662
G1 X64.027 Y21.254 E204.33916
G1 X65.041 Y21.658 E204.37167
G1 X68.747 Y23.038 E204.48945
G1 X66.992 Y29.231 E204.68117
G1 X66.947 Y30.720 E204.72553
G1 X67.001 Y31.695 E204.75462
G1 X66.910 Y32.886 E204.79019
G1 X66.473 Y38.147 E204.94742
G1 X66.374 Y39.913 E205.00010
G1 X66.022 Y45.176 E205.15720
G1 X65.571 Y46.017 E205.18562
G1 X65.306 Y46.576 E205.20405
G1 X64.248 Y46.466 E205.23573
G1 X64.025 Y46.511 E205.24251
G1 X63.803 Y46.468 E205.24924
G1 X62.745 Y46.575 E205.28091
G1 X62.481 Y46.017 E205.29930
G1 X62.029 Y45.175 E205.32776
G1 X61.677 Y39.912 E205.48486
G1 X61.577 Y38.146 E205.53754
G1 X61.142 Y32.885 E205.69477
G1 X61.051 Y31.695 E205.73031
G1 X61.104 Y30.720 E205.75939
G1 X61.059 Y29.230 E205.80379
G1 X59.304 Y23.038 E205.99547
G0 F10500 X60.171 Y23.620
;TYPE:SKIN
G1 F2400 X60.467 Y23.324 E206.00794
G0 F10500 X60.327 Y24.171
G1 F2400 X61.592 Y22.906 E206.06122
G0 F10500 X62.344 Y23.568
G1 F2400 X63.872 Y22.041 E206.12556
G0 F10500 X64.465 Y22.155
G1 F2400 X63.472 Y23.147 E206.16737
G0 F10500 X64.285 Y23.041
G1 F2400 X65.231 Y22.449 E206.19628
G1 X65.058 Y23.329 E206.22524
G1 X66.261 Y22.833 E206.25415
G1 X66.088 Y23.713 E206.28310
G1 X67.292 Y23.216 E206.31212
G1 X67.118 Y24.097 E206.34111
G1 X67.850 Y23.719 E206.36565
G0 F10500 X62.717 Y22.488
G1 F2400 X61.217 Y23.989 E206.42885
G0 F10500 X61.990 Y29.579
G1 F2400 X61.948 Y29.974 E206.43888
G1 X62.037 Y30.592 E206.45462
G1 X62.070 Y31.267 E206.47784
G1 X61.774 Y32.269 E206.50473
G1 X62.448 Y32.303 E206.53082
G1 X61.881 Y33.577 E206.55690
G1 X62.555 Y33.610 E206.58299
G1 X61.987 Y34.885 E206.60918
G1 X62.663 Y34.916 E206.63538
G1 X62.094 Y36.192 E206.66160
G1 X62.772 Y36.222 E206.68783
G1 X62.200 Y37.501 E206.71412
G1 X62.880 Y37.528 E206.74047
G1 X62.291 Y38.824 E206.76718
G1 X62.978 Y38.844 E206.79437
G1 X62.369 Y40.160 E206.82183
G1 X63.044 Y39.839 E206.84409
G0 F10500 X64.996 Y40.008
G1 F2400 X65.732 Y39.272 E206.87509
G0 F10500 X65.047 Y39.250
G1 F2400 X65.775 Y38.523 E206.90574
G0 F10500 X65.099 Y38.492
G1 F2400 X65.826 Y37.764 E206.93638
G0 F10500 X65.161 Y37.722
G1 F2400 X65.889 Y36.994 E206.96704
G0 F10500 X65.223 Y36.953
G1 F2400 X65.952 Y36.224 E206.99775
G0 F10500 X65.286 Y36.183
G1 F2400 X66.015 Y35.454 E207.02845
G0 F10500 X65.348 Y35.414
G1 F2400 X66.078 Y34.684 E207.05920
G0 F10500 X65.411 Y34.643
G1 F2400 X66.141 Y33.914 E207.08993
G0 F10500 X65.473 Y33.874
G1 F2400 X66.204 Y33.144 E207.12070
G0 F10500 X65.536 Y33.104
G1 F2400 X66.266 Y32.374 E207.15144
G0 F10500 X65.599 Y32.334
G1 F2400 X66.318 Y31.615 E207.18173
G0 F10500 X65.661 Y31.565
G1 F2400 X65.995 Y30.877 E207.20783
G1 X66.136 Y30.029 E207.23205
G1 X66.306 Y29.506 E207.24843
G0 F10500 X65.690 Y40.022
G1 F2400 X64.945 Y40.766 E207.27979
G0 F10500 X65.639 Y40.780
G1 F2400 X64.894 Y41.525 E207.31117
G0 F10500 X65.588 Y41.538
G1 F2400 X64.843 Y42.283 E207.34255
G0 F10500 X65.537 Y42.296
G1 F2400 X64.792 Y43.041 E207.37393
G0 F10500 X65.487 Y43.053
G1 F2400 X64.740 Y43.800 E207.40539
G0 F10500 X65.436 Y43.811
G1 F2400 X64.689 Y44.558 E207.43686
G0 F10500 X64.416 Y44.831
G1 F2400 X63.418 Y45.829 E207.47889
G0 F10500 X62.987 Y45.553
G1 F2400 X63.717 Y44.823 E207.50964
G0 F10500 X63.355 Y44.478
G1 F2400 X62.701 Y44.778 E207.53527
G1 X63.288 Y43.484 E207.56278
G1 X62.590 Y43.474 E207.59026
G1 X63.199 Y42.158 E207.61773
G1 X62.501 Y42.149 E207.64522
G1 X63.111 Y40.832 E207.67271
G1 X62.436 Y41.155 E207.69500
G0 F10500 X65.385 Y44.569
G1 F2400 X64.160 Y45.795 E207.74661
G0 F10500 X64.815 Y45.846
G1 F2400 X64.987 Y45.674 E207.75386
G1 F600 E206.25386
G1 Z1.665
G0 F10500 X70.705 Y27.347
;TYPE:WALL-INNER
G1 Z1.565
G1 F600 E207.75386
G1 F1740 X70.789 Y25.399 E207.81193
G1 X71.021 Y19.473 E207.98856
G1 X72.174 Y17.916 E208.04627
G1 X72.792 Y16.483 E208.09274
G1 X73.251 Y16.941 E208.11206
G1 X74.549 Y15.587 E208.16792
G1 X75.076 Y15.624 E208.18365
G1 X75.601 Y17.240 E208.23426
G1 X76.331 Y17.012 E208.25704
G1 X76.371 Y17.359 E208.26744
G1 X76.634 Y21.362 E208.38692
G1 X75.461 Y24.557 E208.48829
G1 X73.301 Y27.461 E208.59608
G1 X72.281 Y27.423 E208.62648
G1 X70.705 Y27.347 E208.67348
G0 F10500 X72.259 Y27.574
G0 X72.257 Y27.922
;TYPE:WALL-OUTER
G1 F1500 X70.184 Y27.822 E208.73529
G1 X70.528 Y19.299 E208.98934
G1 X71.738 Y17.665 E209.04990
G1 X72.625 Y15.609 E209.11659
G1 X73.243 Y16.226 E209.14260
G1 X74.350 Y15.071 E209.19024
G1 X75.447 Y15.148 E209.22300
G1 X75.924 Y16.615 E209.26894
G1 X76.759 Y16.355 E209.29499
G1 X76.868 Y17.303 E209.32341
G1 X77.140 Y21.435 E209.44674
G1 X75.905 Y24.798 E209.55344
G1 X73.546 Y27.970 E209.67118
G1 X72.257 Y27.922 E209.70959
G0 F10500 X72.114 Y27.234
;TYPE:SKIN
G1 F2400 X72.641 Y27.059 E209.72547
G1 X73.167 Y26.888 E209.74194
G0 F10500 X73.199 Y26.855
G1 F2400 X74.498 Y25.556 E209.79666
G0 F10500 X74.579 Y24.769
G1 F2400 X75.554 Y23.794 E209.83772
G0 F10500 X74.989 Y23.652
G1 F2400 X75.963 Y22.677 E209.87877
G0 F10500 X75.400 Y22.534
G1 F2400 X76.373 Y21.561 E209.91975
G0 F10500 X75.811 Y21.416
G1 F2400 X76.175 Y20.697 E209.94548
G1 X76.378 Y20.141 E209.96311
G0 F10500 X71.332 Y20.237
G1 F2400 X71.230 Y20.692 E209.97042
G1 X71.200 Y21.430 E209.97768
G1 X71.170 Y22.166 E209.98492
G1 X71.140 Y22.903 E209.99212
G1 X71.110 Y23.641 E209.99934
G1 X71.080 Y24.378 E210.00650
G1 X71.050 Y25.115 E210.01366
G1 X71.021 Y25.852 E210.02078
G1 X71.031 Y26.548 E210.02787
G1 X71.163 Y27.123 E210.03841
G1 X71.817 Y26.824 E210.05983
G0 F10500 X71.187 Y19.675
G1 F2400 X71.775 Y19.087 E210.08460
G0 F10500 X72.457 Y17.698
G1 F2400 X73.109 Y17.046 E210.11206
G0 F10500 X75.382 Y17.602
G1 F2400 X75.635 Y17.701 E210.11885
G1 X76.225 Y17.819 E210.13889
G1 X76.043 Y18.707 E210.15784
G1 X76.087 Y19.371 E210.17679
G1 X75.884 Y19.928 E210.19445
G1 F600 E208.69445
G1 Z1.665
G0 F10500 X84.024 Y19.058
;TYPE:WALL-INNER
G1 Z1.565
G1 F600 E210.19445
G1 F1740 X84.286 Y15.057 E210.31386
G1 X84.327 Y14.708 E210.32433
G1 X85.057 Y14.935 E210.34710
G1 X85.582 Y13.319 E210.39770
G1 X86.110 Y13.283 E210.41347
G1 X87.407 Y14.637 E210.46931
G1 X87.866 Y14.179 E210.48862
G1 X88.485 Y15.612 E210.53511
G1 X89.636 Y17.170 E210.59281
G1 X89.870 Y23.096 E210.76944
G1 X89.952 Y25.043 E210.82748
G1 X88.376 Y25.118 E210.87447
G1 X87.356 Y25.158 E210.90487
G1 X85.196 Y22.253 E211.01269
G1 X84.024 Y19.058 E211.11405
G0 F10500 X83.519 Y19.130
;TYPE:WALL-OUTER
G1 F1500 X83.788 Y15.011 E211.23699
G1 X83.899 Y14.051 E211.26577
G1 X84.734 Y14.311 E211.29182
G1 X85.212 Y12.843 E211.33780
G1 X86.309 Y12.768 E211.37055
G1 X87.415 Y13.922 E211.41815
G1 X88.033 Y13.305 E211.44416
G1 X88.921 Y15.361 E211.51086
G1 X90.129 Y16.996 E211.57141
G1 X90.473 Y25.519 E211.82546
G1 X88.400 Y25.617 E211.88727
G1 X87.112 Y25.667 E211.92566
G1 X84.752 Y22.493 E212.04346
G1 X83.519 Y19.130 E212.15014
G0 F10500 X84.297 Y19.293
;TYPE:SKIN
G1 F2400 X84.841 Y19.102 E212.16910
G1 X84.581 Y20.069 E212.18801
G1 X85.127 Y19.878 E212.20523
G0 F10500 X84.225 Y18.658
G1 F2400 X84.505 Y18.024 E212.22670
G1 X84.554 Y17.267 E212.24826
G1 X84.604 Y16.511 E212.26983
G1 X84.662 Y15.746 E212.29213
G1 X84.965 Y15.090 E212.31365
G0 F10500 X87.698 Y15.185
G1 F2400 X88.091 Y15.145 E212.32570
G1 X88.148 Y15.795 E212.33409
G1 X88.594 Y16.056 E212.34019
G1 X88.750 Y16.608 E212.34631
G1 X89.195 Y16.870 E212.35233
G1 X89.339 Y17.432 E212.35838
G1 X89.411 Y18.068 E212.36517
G1 X89.439 Y18.747 E212.37193
G1 X89.466 Y19.427 E212.37866
G1 X89.494 Y20.106 E212.38538
G1 X89.521 Y20.786 E212.39211
G1 X89.549 Y21.465 E212.39875
G1 X89.576 Y22.145 E212.40535
G1 X89.604 Y22.825 E212.41196
G1 X89.632 Y23.504 E212.41856
G1 X89.659 Y24.184 E212.42517
G1 X89.138 Y24.705 E212.44421
G1 X88.397 Y24.739 E212.46184
G1 X87.656 Y24.773 E212.47934
G1 X87.143 Y24.578 E212.48768
G1 X87.032 Y23.982 E212.49566
G1 X86.540 Y23.767 E212.50366
G1 X86.429 Y23.171 E212.51164
G1 X85.937 Y22.956 E212.51966
G1 X85.981 Y22.205 E212.53185
G1 X85.364 Y22.114 E212.54879
G1 X85.601 Y21.170 E212.56781
G1 X84.960 Y21.104 E212.58677
G1 X85.317 Y20.395 E212.61041
G1 F600 E211.11041
G1 Z1.665
G0 F10500 X92.518 Y21.043
;TYPE:WALL-INNER
G1 Z1.565
G1 F600 E212.61041
G1 F1740 X95.798 Y19.822 E212.71465
G1 X96.632 Y19.488 E212.74141
G1 X97.467 Y19.821 E212.76818
G1 X100.747 Y21.042 E212.87242
G1 X99.100 Y26.850 E213.05222
G1 X99.053 Y28.423 E213.09909
G1 X99.106 Y29.381 E213.12767
G1 X99.018 Y30.546 E213.16247
G1 X98.581 Y35.808 E213.31973
G1 X98.482 Y37.581 E213.37261
G1 X98.136 Y42.731 E213.52634
G1 X97.730 Y43.488 E213.55193
G1 X97.611 Y43.738 E213.56017
G1 X96.830 Y43.657 E213.58356
G1 X96.630 Y43.698 E213.58964
G1 X96.432 Y43.659 E213.59565
G1 X95.652 Y43.738 E213.61900
G1 X95.127 Y42.730 E213.65285
G1 X94.784 Y37.580 E213.80658
G1 X94.683 Y35.807 E213.85947
G1 X94.247 Y30.544 E214.01675
G1 X94.158 Y29.381 E214.05149
G1 X94.212 Y28.422 E214.08010
G1 X94.163 Y26.848 E214.12700
G1 X92.518 Y21.043 E214.30670
G0 F10500 X91.911 Y20.734
;TYPE:WALL-OUTER
G1 F1500 X95.618 Y19.355 E214.42450
G1 X96.633 Y18.950 E214.45705
G1 X97.647 Y19.354 E214.48956
G1 X101.354 Y20.734 E214.60737
G1 X99.598 Y26.927 E214.79909
G1 X99.554 Y28.416 E214.84345
G1 X99.607 Y29.391 E214.87254
G1 X99.517 Y30.582 E214.90811
G1 X99.080 Y35.843 E215.06534
G1 X98.981 Y37.609 E215.11802
G1 X98.628 Y42.872 E215.27512
G1 X98.177 Y43.713 E215.30354
G1 X97.912 Y44.272 E215.32197
G1 X96.854 Y44.162 E215.35365
G1 X96.631 Y44.207 E215.36042
G1 X96.409 Y44.164 E215.36716
G1 X95.351 Y44.271 E215.39883
G1 X95.087 Y43.713 E215.41722
G1 X94.635 Y42.871 E215.44568
G1 X94.284 Y37.608 E215.60278
G1 X94.184 Y35.842 E215.65546
G1 X93.749 Y30.581 E215.81268
G1 X93.657 Y29.391 E215.84823
G1 X93.711 Y28.416 E215.87731
G1 X93.665 Y26.925 E215.92174
G1 X91.911 Y20.734 E216.11339
G0 F10500 X92.800 Y21.397
;TYPE:SKIN
G1 F2400 X93.235 Y20.962 E216.13171
G0 F10500 X93.985 Y21.626
G1 F2400 X95.488 Y20.123 E216.19502
G0 F10500 X96.244 Y20.781
G1 F2400 X97.145 Y19.880 E216.23297
G0 F10500 X96.640 Y19.678
G1 F2400 X95.115 Y21.204 E216.29722
G0 F10500 X94.361 Y20.542
G1 F2400 X92.956 Y21.947 E216.35640
G0 F10500 X96.967 Y20.765
G1 F2400 X97.913 Y20.173 E216.38532
G1 X97.740 Y21.053 E216.41427
G1 X98.943 Y20.557 E216.44318
G1 X98.770 Y21.436 E216.47216
G1 X99.974 Y20.940 E216.50109
G1 X99.543 Y21.725 E216.52776
G0 F10500 X98.910 Y27.308
G1 F2400 X98.722 Y27.849 E216.54267
G1 X98.585 Y28.692 E216.56831
G1 X98.260 Y29.372 E216.59076
G0 F10500 X98.926 Y29.413
G1 F2400 X98.197 Y30.142 E216.62147
G0 F10500 X98.863 Y30.183
G1 F2400 X98.135 Y30.911 E216.65213
G0 F10500 X98.801 Y30.952
G1 F2400 X98.072 Y31.681 E216.68283
G0 F10500 X98.738 Y31.722
G1 F2400 X98.009 Y32.451 E216.71354
G0 F10500 X98.675 Y32.492
G1 F2400 X97.946 Y33.221 E216.74425
G0 F10500 X98.612 Y33.263
G1 F2400 X97.884 Y33.991 E216.77491
G0 F10500 X98.549 Y34.033
G1 F2400 X97.821 Y34.761 E216.80557
G0 F10500 X98.486 Y34.803
G1 F2400 X97.758 Y35.531 E216.83624
G0 F10500 X98.423 Y35.573
G1 F2400 X97.697 Y36.299 E216.86681
G0 F10500 X98.375 Y36.328
G1 F2400 X97.646 Y37.057 E216.89752
G0 F10500 X98.333 Y37.077
G1 F2400 X97.594 Y37.816 E216.92865
G0 F10500 X98.289 Y37.828
G1 F2400 X97.543 Y38.574 E216.96007
G0 F10500 X98.238 Y38.586
G1 F2400 X97.493 Y39.332 E216.99147
G0 F10500 X98.187 Y39.344
G1 F2400 X97.441 Y40.090 E217.02289
G0 F10500 X98.136 Y40.102
G1 F2400 X97.390 Y40.848 E217.05431
G0 F10500 X98.085 Y40.860
G1 F2400 X97.339 Y41.606 E217.08573
G0 F10500 X98.034 Y41.618
G1 F2400 X97.287 Y42.365 E217.11720
G0 F10500 X97.116 Y42.537
G1 F2400 X96.139 Y43.513 E217.15833
G0 F10500 X95.629 Y43.317
G1 F2400 X96.439 Y42.507 E217.19245
G0 F10500 X95.967 Y42.272
G1 F2400 X95.327 Y42.557 E217.21686
G1 X95.900 Y41.277 E217.24434
G1 X95.203 Y41.267 E217.27183
G1 X95.812 Y39.951 E217.29930
G1 X95.137 Y40.273 E217.32157
G0 F10500 X97.983 Y42.376
G1 F2400 X96.874 Y43.486 E217.36830
G0 F10500 X95.093 Y39.610
G1 F2400 X95.723 Y38.626 E217.39573
G1 X95.027 Y38.615 E217.42317
G1 X95.634 Y37.300 E217.45061
G1 X94.941 Y37.286 E217.47798
G1 X95.545 Y35.976 E217.50514
G1 X94.863 Y35.951 E217.53193
G1 X95.440 Y34.667 E217.55817
G1 X94.762 Y34.638 E217.58449
G1 X95.332 Y33.360 E217.61074
G1 X94.655 Y33.330 E217.63698
G1 X95.224 Y32.054 E217.66320
G1 X94.548 Y32.023 E217.68940
G1 X95.117 Y30.747 E217.71553
G1 X94.441 Y30.715 E217.74169
G1 X95.014 Y29.435 E217.76775
G1 X94.356 Y29.386 E217.79440
G1 X94.657 Y28.378 E217.81884
G1 X94.568 Y27.759 E217.83538
G1 X94.480 Y27.141 E217.84624
G1 X94.446 Y26.821 E217.85582
G0 F10500 X100.059 Y21.916
G1 F2400 X100.416 Y21.559 E217.87086
G1 F600 E216.37086
G1 Z1.665
G0 F10500 X103.396 Y23.095
;TYPE:WALL-INNER
G1 Z1.565
G1 F600 E217.87086
G1 F1740 X103.628 Y17.169 E218.04749
G1 X104.780 Y15.612 E218.10518
G1 X105.399 Y14.179 E218.15167
G1 X105.858 Y14.637 E218.17098
G1 X107.156 Y13.283 E218.22684
G1 X107.683 Y13.320 E218.24258
G1 X108.208 Y14.936 E218.29318
G1 X108.937 Y14.708 E218.31593
G1 X108.976 Y15.054 E218.32630
G1 X109.241 Y19.059 E218.44585
G1 X108.068 Y22.252 E218.54716
G1 X105.907 Y25.157 E218.65499
G1 X104.887 Y25.119 E218.68539
G1 X103.312 Y25.043 E218.73236
G1 X103.396 Y23.095 E218.79043
G0 F10500 X104.865 Y25.270
G0 X104.863 Y25.618
;TYPE:WALL-OUTER
G1 F1500 X102.791 Y25.518 E218.85221
G1 X103.135 Y16.995 E219.10626
